;FLAVOR:Marlin
;TIME:3941
;Filament used: 4.5074m
;Layer height: 0.28
;MINX:117.161
;MINY:70.462
;MINZ:0.336
;MAXX:161.87
;MAXY:142.534
;MAXZ:32.126
;Generated with Cura_SteamEngine 4.4.0
M140 S60
M105
M190 S60
M104 S205
M105
M109 S205
M82 ;absolute extrusion mode
M201 X500.00 Y500.00 Z100.00 E5000.00 ;Setup machine max acceleration
M203 X500.00 Y500.00 Z10.00 E50.00 ;Setup machine max feedrate
M204 P500.00 R1000.00 T500.00 ;Setup Print/Retract/Travel acceleration
M205 X8.00 Y8.00 Z0.40 E5.00 ;Setup Jerk
M220 S100 ;Reset Feedrate
M221 S100 ;Reset Flowrate
G28
G29 ;Home
G92 E0 ;Reset Extruder
G1 Z2.0 F3000 ;Move Z Axis up
G1 X10.1 Y20 Z0.28 F5000.0 ;Move to start position
G1 X10.1 Y200.0 Z0.28 F1500.0 E15 ;Draw the first line
G1 X10.4 Y200.0 Z0.28 F5000.0 ;Move to side a little
G1 X10.4 Y20 Z0.28 F1500.0 E30 ;Draw the second line
G92 E0 ;Reset Extruder
G1 Z2.0 F3000 ;Move Z Axis up
G92 E0
G92 E0
G1 F1500 E-6.5
;LAYER_COUNT:110
;LAYER:-6
M107
G0 F11250 X120.236 Y78.348 Z0.336
;TYPE:SUPPORT-INTERFACE
G1 F1500 E0
G1 F2025 X120.344 Y78.196 E0.02084
G1 X121.269 Y76.99 E0.19069
G1 X121.56 Y76.655 E0.24028
G1 X121.712 Y76.498 E0.2647
G1 X121.91 Y76.313 E0.29499
G1 X123.19 Y75.194 E0.48499
G1 X123.518 Y74.94 E0.53135
G1 X123.903 Y74.686 E0.58289
G1 X125.46 Y73.778 E0.78432
G1 X125.829 Y73.584 E0.83091
G1 X125.911 Y73.547 E0.84096
G1 X126.257 Y73.401 E0.88293
G1 X128.095 Y72.706 E1.10253
G1 X128.223 Y72.663 E1.11762
G1 X128.789 Y72.498 E1.1835
G1 X128.952 Y72.456 E1.20232
G1 X131.334 Y71.932 E1.47488
G1 X131.91 Y71.845 E1.53998
G1 X134.869 Y71.552 E1.87228
G1 X135.363 Y71.531 E1.92753
G1 X138.982 Y71.529 E2.33197
G1 X139.351 Y71.544 E2.37324
G1 X143.776 Y71.902 E2.86937
G1 X144.095 Y71.941 E2.90528
G1 X149.588 Y72.765 E3.52602
G1 X153.236 Y73.48 E3.94145
G1 X153.752 Y73.599 E4.00063
G1 X153.752 Y73.595 E4.00108
G1 X157.139 Y74.362 E4.38917
G1 X157.287 Y74.401 E4.40628
G1 X157.645 Y74.505 E4.44794
G1 X157.934 Y74.611 E4.48234
G1 X158.19 Y74.723 E4.51357
G1 X158.44 Y74.852 E4.54501
G1 X158.703 Y75.009 E4.57924
G1 X158.921 Y75.159 E4.60881
G1 X159.162 Y75.349 E4.64311
G1 X159.381 Y75.545 E4.67595
G1 X159.587 Y75.753 E4.70867
G1 X159.768 Y75.961 E4.73948
G1 X159.947 Y76.196 E4.77249
G1 X160.119 Y76.452 E4.80696
G1 X160.258 Y76.691 E4.83786
G1 X160.382 Y76.94 E4.86894
G1 X160.505 Y77.233 E4.90445
G1 X160.595 Y77.491 E4.93499
G1 X160.672 Y77.764 E4.96669
G1 X160.734 Y78.051 E4.9995
G1 X160.775 Y78.336 E5.03168
G1 X160.8 Y78.638 E5.06555
G1 X160.806 Y78.919 E5.09696
G1 X160.793 Y79.21 E5.12951
G1 X160.762 Y79.509 E5.1631
G1 X160.713 Y79.789 E5.19487
G1 X160.648 Y80.063 E5.22634
G1 X160.562 Y80.346 E5.25939
G1 X160.458 Y80.624 E5.29257
G1 X160.34 Y80.886 E5.32468
G1 X160.206 Y81.139 E5.35667
G1 X160.04 Y81.409 E5.39209
G1 X159.886 Y81.626 E5.42183
G1 X159.706 Y81.852 E5.45412
G1 X159.508 Y82.068 E5.48686
G1 X159.295 Y82.274 E5.51998
G1 X159.076 Y82.46 E5.55209
G1 X158.845 Y82.633 E5.58434
G1 X158.613 Y82.785 E5.61534
G1 X158.336 Y82.942 E5.65092
G1 X158.093 Y83.059 E5.68106
G1 X157.811 Y83.175 E5.71514
G1 X157.443 Y83.298 E5.7585
G1 X157.284 Y83.345 E5.77703
G1 X153.324 Y84.403 E6.23509
G1 X152.692 Y84.616 E6.30963
G1 X152.25 Y84.82 E6.36403
G1 X145.93 Y88.096 E7.15956
G1 X145.568 Y88.255 E7.20375
G1 X145.345 Y88.339 E7.23038
G1 X144.889 Y88.476 E7.28359
G1 X137.971 Y90.33 E8.08399
G1 X137.336 Y90.544 E8.15887
G1 X136.722 Y90.842 E8.23514
G1 X136.149 Y91.216 E8.31161
G1 X135.63 Y91.658 E8.38779
G1 X135.169 Y92.162 E8.46413
G1 X134.776 Y92.72 E8.5404
G1 X134.456 Y93.325 E8.61688
G1 X134.217 Y93.964 E8.69313
G1 X134.057 Y94.632 E8.76989
G1 X133.981 Y95.526 E8.87016
G1 X133.981 Y105.882 E10.02748
G1 X134.023 Y106.55 E10.10228
G1 X134.152 Y107.221 E10.17864
G1 X134.365 Y107.87 E10.25498
G1 X134.657 Y108.487 E10.33126
G1 X135.025 Y109.062 E10.40755
G1 X135.463 Y109.586 E10.48388
G1 X135.963 Y110.05 E10.56011
G1 X136.519 Y110.449 E10.63659
G1 X137.119 Y110.773 E10.71279
G1 X137.755 Y111.019 E10.789
G1 X138.424 Y111.185 E10.86603
G1 X139.363 Y111.269 E10.97138
G1 X142.722 Y111.273 E11.34677
G1 X143.099 Y111.297 E11.38898
G1 X143.397 Y111.334 E11.42254
G1 X143.681 Y111.389 E11.45487
G1 X143.972 Y111.465 E11.48848
G1 X144.23 Y111.549 E11.5188
G1 X144.509 Y111.66 E11.55236
G1 X144.767 Y111.782 E11.58425
G1 X145.025 Y111.925 E11.61722
G1 X145.264 Y112.077 E11.64887
G1 X145.511 Y112.259 E11.68316
G1 X145.712 Y112.428 E11.71251
G1 X145.945 Y112.648 E11.74832
G1 X146.132 Y112.85 E11.77908
G1 X146.32 Y113.08 E11.81228
G1 X146.484 Y113.308 E11.84366
G1 X146.646 Y113.567 E11.8778
G1 X146.774 Y113.806 E11.9081
G1 X146.901 Y114.081 E11.94195
G1 X147.003 Y114.342 E11.97327
G1 X147.098 Y114.645 E12.00876
G1 X147.157 Y114.882 E12.03605
G1 X147.212 Y115.208 E12.073
G1 X147.263 Y115.734 E12.13206
G1 X147.273 Y115.958 E12.15711
G1 X147.268 Y120.422 E12.65598
G1 X147.244 Y120.797 E12.69798
G1 X147.207 Y121.092 E12.7312
G1 X147.149 Y121.39 E12.76513
G1 X147.079 Y121.662 E12.79652
G1 X146.992 Y121.928 E12.82779
G1 X146.88 Y122.209 E12.8616
G1 X146.761 Y122.459 E12.89254
G1 X146.301 Y123.286 E12.9983
G1 X146.046 Y123.919 E13.07456
G1 X145.873 Y124.579 E13.15081
G1 X145.783 Y125.256 E13.22713
G1 X145.781 Y125.939 E13.30346
G1 X145.864 Y126.616 E13.37969
G1 X146.033 Y127.278 E13.45604
G1 X146.283 Y127.912 E13.5322
G1 X146.584 Y128.468 E13.60286
G1 X146.645 Y128.565 E13.61566
G1 X146.775 Y128.806 E13.64626
G1 X146.902 Y129.081 E13.68012
G1 X147.004 Y129.342 E13.71143
G1 X147.099 Y129.645 E13.74692
G1 X147.153 Y129.866 E13.77234
G1 X147.213 Y130.222 E13.81269
G1 X147.263 Y130.776 E13.87485
G1 X147.273 Y130.998 E13.89969
G1 X147.269 Y136.919 E14.56138
G1 X147.245 Y137.296 E14.6036
G1 X147.208 Y137.594 E14.63716
G1 X147.153 Y137.878 E14.66949
G1 X147.077 Y138.169 E14.7031
G1 X146.993 Y138.427 E14.73342
G1 X146.882 Y138.706 E14.76698
G1 X146.76 Y138.964 E14.79887
G1 X146.617 Y139.222 E14.83183
G1 X146.465 Y139.461 E14.86349
G1 X146.292 Y139.696 E14.8961
G1 X146.111 Y139.913 E14.92768
G1 X145.897 Y140.139 E14.96246
G1 X145.692 Y140.329 E14.9937
G1 X145.462 Y140.517 E15.02689
G1 X145.234 Y140.681 E15.05828
G1 X144.975 Y140.843 E15.09242
G1 X144.736 Y140.971 E15.12272
G1 X144.461 Y141.098 E15.15657
G1 X144.2 Y141.2 E15.18789
G1 X143.897 Y141.295 E15.22337
G1 X143.676 Y141.349 E15.2488
G1 X143.32 Y141.409 E15.28914
G1 X142.766 Y141.459 E15.35131
G1 X142.544 Y141.469 E15.37614
G1 X122.623 Y141.465 E17.60239
G1 X122.246 Y141.441 E17.64461
G1 X121.948 Y141.404 E17.67817
G1 X121.664 Y141.349 E17.7105
G1 X121.373 Y141.273 E17.74411
G1 X121.113 Y141.188 E17.77468
G1 X120.836 Y141.078 E17.80798
G1 X120.577 Y140.955 E17.84003
G1 X120.32 Y140.813 E17.87284
G1 X120.081 Y140.661 E17.90449
G1 X119.834 Y140.479 E17.93878
G1 X119.633 Y140.31 E17.96813
G1 X119.4 Y140.09 E18.00394
G1 X119.213 Y139.888 E18.0347
G1 X119.021 Y139.653 E18.06862
G1 X118.861 Y139.43 E18.09929
G1 X118.699 Y139.171 E18.13343
G1 X118.571 Y138.932 E18.16373
G1 X118.444 Y138.657 E18.19758
G1 X118.342 Y138.396 E18.22889
G1 X118.247 Y138.093 E18.26438
G1 X118.191 Y137.864 E18.29073
G1 X118.133 Y137.516 E18.33015
G1 X118.083 Y136.962 E18.39232
G1 X118.073 Y136.74 E18.41715
G1 X118.075 Y85.845 E24.10487
G1 X118.099 Y85.37 E24.15802
G1 X118.282 Y83.554 E24.362
G1 X118.339 Y83.175 E24.40483
G1 X118.368 Y83.034 E24.42092
G1 X118.465 Y82.639 E24.46637
G1 X118.907 Y81.073 E24.64821
G1 X119.053 Y80.654 E24.6978
G1 X119.176 Y80.361 E24.73331
G1 X119.224 Y80.26 E24.74581
G1 X119.841 Y79.02 E24.90059
G1 X119.915 Y78.883 E24.91799
G1 X120.109 Y78.548 E24.96125
G0 F1822.5 X120.126 Y78.519
G0 X120.236 Y78.348
G0 F11250 X120 Y78.736
G1 F2025 X120 Y140.601 E31.87492
G0 F11250 X121.6 Y141.332
G1 F2025 X121.6 Y76.613 E39.10753
G0 F11250 X123.2 Y75.186
G1 F2025 X123.2 Y141.465 E46.51448
G0 F11250 X124.8 Y141.465
G1 F2025 X124.8 Y74.162 E54.03586
G0 F11250 X126.4 Y73.346
G1 F2025 X126.4 Y141.465 E61.64843
G0 F11250 X128 Y141.466
G1 F2025 X128 Y72.741 E69.32873
G0 F11250 X129.6 Y72.313
G1 F2025 X129.6 Y141.466 E77.05686
G0 F11250 X131.2 Y141.466
G1 F2025 X131.2 Y71.961 E84.82433
G0 F11250 X132.8 Y71.756
G1 F2025 X132.8 Y141.467 E92.61481
G0 F11250 X134.4 Y141.467
G1 F2025 X134.4 Y107.944 E96.36114
G0 F11250 X136 Y110.077
G1 F2025 X136 Y141.467 E99.8691
G0 F11250 X137.6 Y141.468
G1 F2025 X137.6 Y110.96 E103.2785
G0 F11250 X139.2 Y111.255
G1 F2025 X139.2 Y141.468 E106.65492
G0 F11250 X140.8 Y141.468
G1 F2025 X140.8 Y111.271 E110.02956
G0 F11250 X142.4 Y111.273
G1 F2025 X142.4 Y141.468 E113.40397
G0 F11250 X144 Y141.263
G1 F2025 X144 Y111.475 E116.7329
G0 F11250 X145.6 Y112.334
G1 F2025 X145.6 Y140.405 E119.86995
G0 F11250 X147.2 Y137.636
G1 F2025 X147.2 Y130.145 E120.7071
G1 F1500 E114.2071
G0 F11250 X148.121 Y129.347
G0 X148.102 Y121.957
G0 X147.2 Y121.128
G1 F1500 E120.7071
G1 F2025 X147.2 Y115.137 E121.37662
G1 F1500 E114.87662
G0 F11250 X148.12 Y114.346
G0 X147.726 Y113.33
G0 X135.238 Y94.272
G0 X134.4 Y93.475
G1 F1500 E121.37662
G1 F2025 X134.4 Y71.598 E123.82146
G0 F11250 X136 Y71.53
G1 F2025 X136 Y91.343 E126.03564
G0 F11250 X137.6 Y90.456
G1 F2025 X137.6 Y71.529 E128.15081
G0 F11250 X139.2 Y71.538
G1 F2025 X139.2 Y90.001 E130.21413
G0 F11250 X140.8 Y89.572
G1 F2025 X140.8 Y71.662 E132.21564
G0 F11250 X142.4 Y71.791
G1 F2025 X142.4 Y89.144 E134.15491
G0 F11250 X144 Y88.715
G1 F2025 X144 Y71.93 E136.0307
G0 F11250 X145.6 Y72.167
G1 F2025 X145.6 Y88.241 E137.82704
G0 F11250 X147.2 Y87.438
G1 F2025 X147.2 Y72.407 E139.50681
G0 F11250 X148.8 Y72.647
G1 F2025 X148.8 Y86.609 E141.06712
G0 F11250 X150.4 Y85.779
G1 F2025 X150.4 Y72.925 E142.50361
G0 F11250 X152 Y73.238
G1 F2025 X152 Y84.95 E143.81247
G0 F11250 X153.6 Y84.33
G1 F2025 X153.6 Y73.564 E145.01562
G0 F11250 X155.2 Y73.923
G1 F2025 X155.2 Y83.902 E146.13081
G0 F11250 X156.8 Y83.475
G1 F2025 X156.8 Y74.286 E147.15772
G0 F11250 X158.4 Y74.832
G1 F2025 X158.4 Y82.906 E148.06002
G0 F11250 X160 Y81.466
G1 F2025 X160 Y76.275 E148.64014
G1 F1500 E142.14014
G0 F11250 X160.81 Y75.572
G0 X160.116 Y74.775
G0 X159.274 Y74.11
G0 X158.318 Y73.618
G0 X157.399 Y73.33
G0 X152.702 Y72.306
G0 X149.487 Y71.668
G0 X143.799 Y70.835
G0 X138.899 Y70.462
G0 X134.657 Y70.502
G0 X131.148 Y70.884
G0 X127.911 Y71.645
G0 X125.267 Y72.674
G0 X122.898 Y74.075
G0 X120.768 Y75.945
G0 X119.213 Y77.972
G0 X118.053 Y80.288
G0 X117.438 Y82.359
G0 X118.4 Y82.903
G1 F1500 E148.64014
G1 F2025 X118.4 Y138.544 E154.85824
G0 F300 X118.4 Y138.544 Z0.616
G0 F11250 X118.246 Y138.092
;TIME_ELAPSED:54.018839
;LAYER:-5
M140 S60
;TYPE:SUPPORT
G1 F2025 X118.342 Y138.395 E154.88784
G1 X118.443 Y138.655 E154.91382
G1 X118.571 Y138.931 E154.94215
G1 X118.699 Y139.169 E154.96732
G1 X118.861 Y139.429 E154.99585
G1 X119.02 Y139.652 E155.02135
G1 X119.213 Y139.887 E155.04967
G1 X119.399 Y140.089 E155.07525
G1 X119.633 Y140.309 E155.10516
G1 X119.834 Y140.478 E155.12961
G1 X120.08 Y140.66 E155.15811
G1 X120.319 Y140.811 E155.18444
G1 X120.577 Y140.954 E155.21191
G1 X120.836 Y141.077 E155.23861
G1 X121.112 Y141.187 E155.26628
G1 X121.372 Y141.272 E155.29176
G1 X121.508 Y141.307 E155.30483
G1 X118.231 Y138.03 E155.73643
G1 X118.191 Y137.863 E155.75242
G1 X118.133 Y137.515 E155.78528
G1 X118.083 Y136.961 E155.83708
G1 X118.073 Y136.739 E155.85777
G1 X118.073 Y136.458 E155.88394
G1 X123.079 Y141.464 E156.54325
G1 X124.493 Y141.464 E156.67493
G1 X118.073 Y135.043 E157.52054
G1 X118.073 Y133.629 E157.65222
G1 X125.908 Y141.464 E158.68411
G1 X127.323 Y141.465 E158.81589
G1 X118.073 Y132.215 E160.03415
G1 X118.073 Y130.801 E160.16583
G1 X128.737 Y141.465 E161.57032
G1 X130.152 Y141.465 E161.70209
G1 X118.073 Y129.387 E163.29287
G1 X118.073 Y127.972 E163.42465
G1 X131.566 Y141.465 E165.20172
G1 X132.981 Y141.466 E165.3335
G1 X118.073 Y126.558 E167.29694
G1 X118.073 Y125.144 E167.42862
G1 X134.395 Y141.466 E169.57828
G1 X135.809 Y141.466 E169.70997
G1 X118.073 Y123.73 E172.04586
G1 X118.073 Y122.316 E172.17754
G1 X137.224 Y141.467 E174.69979
G1 X138.638 Y141.467 E174.83148
G1 X118.073 Y120.901 E177.54002
G1 X118.073 Y119.487 E177.67171
G1 X140.053 Y141.468 E180.56661
G1 X141.468 Y141.468 E180.69839
G1 X118.073 Y118.073 E183.77959
G1 X118.073 Y116.659 E183.91128
G1 X142.863 Y141.449 E187.1762
G1 X143.319 Y141.408 E187.21884
G1 X143.675 Y141.349 E187.25245
G1 X143.896 Y141.295 E187.27363
G1 X144.068 Y141.24 E187.29045
G1 X118.073 Y115.244 E190.71415
G1 X118.073 Y113.83 E190.84583
G1 X145.042 Y140.799 E194.39774
G1 X145.233 Y140.681 E194.41865
G1 X145.461 Y140.516 E194.44486
G1 X145.691 Y140.328 E194.47252
G1 X145.843 Y140.186 E194.49189
G1 X118.073 Y112.416 E198.1493
G1 X118.074 Y111.003 E198.28089
G1 X146.491 Y139.42 E202.0235
G1 X146.616 Y139.221 E202.04539
G1 X146.759 Y138.964 E202.07278
G1 X146.881 Y138.706 E202.09936
G1 X146.97 Y138.484 E202.12163
G1 X118.074 Y109.588 E205.92733
G1 X118.074 Y108.174 E206.05902
G1 X147.239 Y137.339 E209.90015
G1 X147.244 Y137.295 E209.90427
G1 X147.268 Y136.919 E209.93936
G1 X147.269 Y135.955 E210.02913
G1 X118.074 Y106.76 E213.87422
G1 X118.074 Y105.346 E214.0059
G1 X147.27 Y134.542 E217.85111
G1 X147.271 Y133.129 E217.9827
G1 X118.074 Y103.931 E221.82811
G1 X118.074 Y102.517 E221.9598
G1 X147.272 Y131.716 E225.80534
G1 X147.272 Y130.997 E225.8723
G1 X147.262 Y130.775 E225.89299
G1 X147.214 Y130.244 E225.94265
G1 X118.074 Y101.103 E229.78055
G1 X118.074 Y99.689 E229.91223
G1 X146.273 Y127.888 E233.62614
G1 X146.032 Y127.278 E233.68722
G1 X145.863 Y126.615 E233.75094
G1 X145.787 Y125.988 E233.80976
G1 X118.074 Y98.275 E237.45965
G1 X118.074 Y96.86 E237.59143
G1 X145.863 Y124.65 E241.2514
G1 X145.872 Y124.578 E241.25816
G1 X146.045 Y123.919 E241.32161
G1 X146.189 Y123.561 E241.35755
G1 X118.074 Y95.446 E245.06039
G1 X118.074 Y94.032 E245.19207
G1 X146.668 Y122.626 E248.958
G1 X146.76 Y122.458 E248.97584
G1 X146.879 Y122.208 E249.00162
G1 X146.991 Y121.928 E249.02971
G1 X147.078 Y121.661 E249.05586
G1 X147.086 Y121.63 E249.05884
G1 X118.074 Y92.618 E252.87982
G1 X118.074 Y91.204 E253.0115
G1 X134.181 Y107.311 E255.13285
G1 X134.364 Y107.87 E255.18763
G1 X134.655 Y108.487 E255.25116
G1 X135.024 Y109.062 E255.31478
G1 X135.461 Y109.585 E255.37826
G1 X135.962 Y110.049 E255.44185
G1 X136.518 Y110.448 E255.50558
G1 X137.118 Y110.773 E255.56913
G1 X137.754 Y111.018 E255.6326
G0 F11250 X137.933 Y111.063
G1 F2025 X147.267 Y120.397 E256.86192
G1 X147.269 Y118.984 E256.99351
G1 X139.553 Y111.269 E258.00967
G1 X140.969 Y111.271 E258.14154
G1 X147.271 Y117.572 E258.97147
G1 X147.272 Y116.159 E259.10306
G1 X142.385 Y111.273 E259.74663
G1 X142.721 Y111.273 E259.77792
G1 X143.098 Y111.297 E259.8131
G1 X143.396 Y111.334 E259.84106
G1 X143.679 Y111.389 E259.86791
G1 X143.971 Y111.465 E259.89601
G1 X144.003 Y111.476 E259.89916
G1 X147.063 Y114.536 E260.30218
G0 F11250 X147.001 Y114.341
G1 F2025 X146.9 Y114.081 E260.32815
G1 X146.772 Y113.806 E260.3564
G1 X146.645 Y113.567 E260.38161
G1 X146.482 Y113.308 E260.41011
G1 X146.319 Y113.079 E260.43628
G1 X146.13 Y112.849 E260.46401
G1 X145.944 Y112.647 E260.48958
G1 X145.711 Y112.427 E260.51942
G1 X145.509 Y112.258 E260.54395
G1 X145.263 Y112.077 E260.57239
G1 X145.024 Y111.925 E260.59877
G1 X144.765 Y111.782 E260.62632
G1 X144.507 Y111.659 E260.65294
G1 X144.229 Y111.549 E260.68078
G1 X144.003 Y111.476 E260.7029
G1 F1500 E254.2029
G0 F11250 X143.914 Y110.349
G0 X135.194 Y106.98
G0 X134.181 Y107.311
G1 F1500 E260.7029
G1 F2025 X134.151 Y107.22 E260.71182
G1 X134.022 Y106.549 E260.77546
G1 X133.979 Y105.882 E260.8377
G1 X133.979 Y105.695 E260.85512
G1 X118.074 Y89.789 E262.94993
G1 X118.074 Y88.375 E263.08161
G1 X133.979 Y104.281 E265.17642
G1 X133.979 Y102.867 E265.3081
G1 X118.074 Y86.961 E267.40291
G1 X118.074 Y85.844 E267.50693
G1 X118.088 Y85.561 E267.53332
G1 X133.979 Y101.452 E269.62622
G1 X133.979 Y100.038 E269.7579
G1 X118.209 Y84.268 E271.83487
G1 X118.281 Y83.553 E271.90179
G1 X118.337 Y83.174 E271.93747
G1 X118.366 Y83.034 E271.95079
G1 X118.371 Y83.015 E271.95261
G1 X133.979 Y98.624 E274.00831
G1 X133.979 Y97.21 E274.13999
G1 X118.672 Y81.902 E276.15604
G1 X118.906 Y81.073 E276.23626
G1 X118.996 Y80.813 E276.26188
G1 X133.979 Y95.795 E278.23513
