;FLAVOR:Marlin
;TIME:8904
;Filament used: 11.204m
;Layer height: 0.28
;MINX:92.414
;MINY:61.505
;MINZ:0.336
;MAXX:140.743
;MAXY:130.238
;MAXZ:29.696
;Generated with Cura_SteamEngine 4.4.0
M140 S60
M105
M190 S60
M104 S200
M105
M109 S200
M82 ;absolute extrusion mode
M201 X500.00 Y500.00 Z100.00 E5000.00 ;Setup machine max acceleration
M203 X500.00 Y500.00 Z10.00 E50.00 ;Setup machine max feedrate
M204 P500.00 R1000.00 T500.00 ;Setup Print/Retract/Travel acceleration
M205 X8.00 Y8.00 Z0.40 E5.00 ;Setup Jerk
M220 S100 ;Reset Feedrate
M221 S100 ;Reset Flowrate
G28
G29 ;Home
G92 E0 ;Reset Extruder
G1 Z2.0 F3000 ;Move Z Axis up
G1 X10.1 Y20 Z0.28 F5000.0 ;Move to start position
G1 X10.1 Y200.0 Z0.28 F1500.0 E15 ;Draw the first line
G1 X10.4 Y200.0 Z0.28 F5000.0 ;Move to side a little
G1 X10.4 Y20 Z0.28 F1500.0 E30 ;Draw the second line
G92 E0 ;Reset Extruder
G1 Z2.0 F3000 ;Move Z Axis up
G92 E0
G92 E0
G1 F1500 E-7
;LAYER_COUNT:102
;LAYER:-4
M106 S25.5
G0 F11250 X94.95 Y65.882 Z0.336
;TYPE:SUPPORT-INTERFACE
G1 F1500 E0
G1 F1800 X95.278 Y65.453 E0.06035
G1 X95.421 Y65.283 E0.08518
G1 X95.851 Y64.821 E0.15571
G1 X95.916 Y64.76 E0.16567
G1 X96.365 Y64.354 E0.23332
G1 X96.55 Y64.202 E0.26008
G1 X96.975 Y63.889 E0.31906
G1 X97.154 Y63.77 E0.34308
G1 X97.618 Y63.495 E0.40336
G1 X97.813 Y63.392 E0.42801
G1 X98.303 Y63.164 E0.4884
G1 X98.513 Y63.079 E0.51372
G1 X99.023 Y62.901 E0.57409
G1 X99.233 Y62.839 E0.59856
G1 X99.757 Y62.713 E0.65879
G1 X99.976 Y62.673 E0.68367
G1 X100.509 Y62.6 E0.74379
G1 X100.709 Y62.582 E0.76623
G1 X101.327 Y62.558 E0.83534
G1 X108.606 Y62.574 E1.6488
G1 X109.171 Y62.602 E1.71202
G1 X109.424 Y62.628 E1.74044
G1 X109.921 Y62.704 E1.79663
G1 X110.297 Y62.781 E1.83952
G1 X110.845 Y62.885 E1.90186
G1 X111.527 Y62.927 E1.97822
G1 X112.217 Y62.88 E2.05551
G1 X112.326 Y62.865 E2.0678
G1 X112.548 Y62.847 E2.09269
G1 X113.076 Y62.827 E2.15174
G1 X132.91 Y62.975 E4.36833
G1 X133.525 Y63.01 E4.43717
G1 X133.752 Y63.035 E4.4627
G1 X134.292 Y63.121 E4.5238
G1 X134.5 Y63.165 E4.54756
G1 X135.006 Y63.298 E4.60603
G1 X135.243 Y63.373 E4.63381
G1 X135.72 Y63.551 E4.69071
G1 X135.951 Y63.651 E4.71884
G1 X136.416 Y63.88 E4.77676
G1 X136.619 Y63.993 E4.80273
G1 X137.063 Y64.27 E4.86121
G1 X137.259 Y64.406 E4.88787
G1 X137.678 Y64.729 E4.94699
G1 X137.864 Y64.887 E4.97427
G1 X138.281 Y65.279 E5.03823
G1 X138.343 Y65.345 E5.04835
G1 X138.749 Y65.794 E5.116
G1 X138.901 Y65.979 E5.14275
G1 X139.206 Y66.393 E5.20022
G1 X139.344 Y66.6 E5.22802
G1 X139.603 Y67.039 E5.28498
G1 X139.715 Y67.25 E5.31168
G1 X139.941 Y67.737 E5.37168
G1 X140.022 Y67.937 E5.39579
G1 X140.205 Y68.46 E5.45772
G1 X140.262 Y68.654 E5.48031
G1 X140.391 Y69.192 E5.54214
G1 X140.43 Y69.405 E5.56634
G1 X140.504 Y69.946 E5.62736
G1 X140.521 Y70.144 E5.64957
G1 X140.545 Y70.806 E5.7236
G1 X140.542 Y71.091 E5.75545
G1 X140.157 Y121.542 E11.39372
G1 X140.122 Y122.156 E11.46245
G1 X140.097 Y122.383 E11.48797
G1 X140.011 Y122.924 E11.54919
G1 X139.968 Y123.125 E11.57216
G1 X139.833 Y123.636 E11.63122
G1 X139.76 Y123.867 E11.6583
G1 X139.572 Y124.37 E11.71831
G1 X139.49 Y124.561 E11.74154
G1 X139.253 Y125.042 E11.80146
G1 X139.133 Y125.26 E11.82927
G1 X138.865 Y125.69 E11.8859
G1 X138.724 Y125.891 E11.91333
G1 X138.404 Y126.307 E11.97199
G1 X138.257 Y126.48 E11.99736
G1 X137.792 Y126.97 E12.07285
G1 X137.305 Y127.406 E12.1459
G1 X137.138 Y127.542 E12.16997
G1 X136.712 Y127.854 E12.22898
G1 X136.51 Y127.986 E12.25594
G1 X136.044 Y128.26 E12.31636
G1 X135.859 Y128.357 E12.3397
G1 X135.374 Y128.58 E12.39935
G1 X135.163 Y128.665 E12.42478
G1 X134.659 Y128.837 E12.48429
G1 X134.435 Y128.902 E12.51036
G1 X133.914 Y129.025 E12.57018
G1 X133.716 Y129.061 E12.59267
G1 X133.151 Y129.136 E12.65636
G1 X132.954 Y129.152 E12.67845
G1 X132.312 Y129.173 E12.75024
G1 X125.091 Y129.117 E13.55724
G1 X124.477 Y129.082 E13.62597
G1 X124.25 Y129.057 E13.65149
G1 X123.713 Y128.971 E13.71226
G1 X123.452 Y128.913 E13.74214
G1 X122.795 Y128.784 E13.81697
G1 X122.119 Y128.737 E13.8927
G1 X121.642 Y128.757 E13.94605
G1 X121.448 Y128.772 E13.96779
G1 X120.864 Y128.794 E14.03311
G1 X101.091 Y128.755 E16.24282
G1 X100.527 Y128.727 E16.30593
G1 X100.275 Y128.701 E16.33424
G1 X99.78 Y128.625 E16.39021
G1 X99.52 Y128.572 E16.41986
G1 X99.037 Y128.447 E16.47562
G1 X98.81 Y128.376 E16.5022
G1 X98.296 Y128.188 E16.56336
G1 X98.104 Y128.107 E16.58665
G1 X97.63 Y127.877 E16.64553
G1 X97.41 Y127.756 E16.67359
G1 X96.964 Y127.482 E16.73208
G1 X96.778 Y127.354 E16.75731
G1 X96.349 Y127.026 E16.81766
G1 X96.179 Y126.883 E16.84249
G1 X95.656 Y126.389 E16.92289
G1 X95.25 Y125.94 E16.99054
G1 X95.098 Y125.754 E17.01738
G1 X94.794 Y125.341 E17.07469
G1 X94.651 Y125.125 E17.10364
G1 X94.391 Y124.686 E17.16066
G1 X94.288 Y124.491 E17.1853
G1 X94.058 Y123.996 E17.2463
G1 X93.975 Y123.791 E17.27102
G1 X93.794 Y123.273 E17.33234
G1 X93.734 Y123.067 E17.35632
G1 X93.608 Y122.542 E17.41665
G1 X93.567 Y122.32 E17.44188
G1 X93.496 Y121.798 E17.50076
G1 X93.477 Y121.573 E17.52599
G1 X93.454 Y120.966 E17.59387
G1 X93.454 Y120.701 E17.62349
G1 X93.549 Y70.195 E23.26775
G1 X93.577 Y69.63 E23.33097
G1 X93.602 Y69.386 E23.35838
G1 X93.681 Y68.868 E23.41694
G1 X93.729 Y68.635 E23.44352
G1 X93.859 Y68.133 E23.50147
G1 X93.931 Y67.901 E23.52862
G1 X94.108 Y67.418 E23.58611
G1 X94.196 Y67.21 E23.61135
G1 X94.425 Y66.738 E23.66998
G1 X94.548 Y66.514 E23.69853
G1 X94.795 Y66.113 E23.75117
G0 F1620 X94.822 Y66.068
G0 X94.95 Y65.882
G0 F11250 X94.4 Y66.789
G1 F1800 X94.4 Y124.701 E30.22307
G0 F11250 X96 Y126.713
G1 F1800 X96 Y64.684 E37.15506
G0 F11250 X97.6 Y63.505
G1 F1800 X97.6 Y127.86 E44.34699
G0 F11250 X99.2 Y128.489
G1 F1800 X99.2 Y62.848 E51.68264
G0 F11250 X100.8 Y62.578
G1 F1800 X100.8 Y128.74 E59.07651
G0 F11250 X102.4 Y128.757
G1 F1800 X102.4 Y62.561 E66.47418
G0 F11250 X104 Y62.564
G1 F1800 X104 Y128.76 E73.87185
G0 F11250 X105.6 Y128.763
G1 F1800 X105.6 Y62.568 E81.26941
G0 F11250 X107.2 Y62.571
G1 F1800 X107.2 Y128.767 E88.66708
G0 F11250 X108.8 Y128.77
G1 F1800 X108.8 Y62.584 E96.06364
G0 F11250 X110.4 Y62.801
G1 F1800 X110.4 Y128.773 E103.43628
G0 F11250 X112 Y128.776
G1 F1800 X112 Y62.894 E110.79886
G0 F11250 X113.6 Y62.831
G1 F1800 X113.6 Y128.779 E118.16881
G0 F11250 X115.2 Y128.782
G1 F1800 X115.2 Y62.843 E125.53776
G0 F11250 X116.8 Y62.855
G1 F1800 X116.8 Y128.785 E132.90571
G0 F11250 X118.4 Y128.789
G1 F1800 X118.4 Y62.867 E140.27276
G0 F11250 X120 Y62.879
G1 F1800 X120 Y128.792 E147.6388
G0 F11250 X121.6 Y128.761
G1 F1800 X121.6 Y62.891 E155.00004
G0 F11250 X123.2 Y62.903
G1 F1800 X123.2 Y128.863 E162.37134
G0 F11250 X124.8 Y129.1
G1 F1800 X124.8 Y62.915 E169.76778
G0 F11250 X126.4 Y62.927
G1 F1800 X126.4 Y129.127 E177.1659
G0 F11250 X128 Y129.139
G1 F1800 X128 Y62.939 E184.56402
G0 F11250 X129.6 Y62.951
G1 F1800 X129.6 Y129.151 E191.96214
G0 F11250 X131.2 Y129.164
G1 F1800 X131.2 Y62.963 E199.36037
G0 F11250 X132.8 Y62.975
G1 F1800 X132.8 Y129.158 E206.75659
G0 F11250 X134.4 Y128.911
G1 F1800 X134.4 Y63.144 E214.10632
G0 F11250 X136 Y63.676
G1 F1800 X136 Y128.284 E221.32652
G0 F11250 X137.6 Y127.142
G1 F1800 X137.6 Y64.669 E228.30813
G0 F11250 X139.2 Y66.385
G1 F1800 X139.2 Y125.139 E234.87413
G1 F1500 E227.87413
G0 F300 X139.2 Y125.139 Z0.756
G0 F11250 X140.054 Y125.794
G0 X139.226 Y126.985
G0 X138.509 Y127.757
G0 X137.315 Y128.731
G0 X136.326 Y129.313
G0 X134.984 Y129.851
G0 X133.873 Y130.114
G0 X132.312 Y130.238
G0 X124.379 Y130.142
G0 X100.435 Y129.787
G0 X100.111 Y129.737
G0 X98.739 Y129.469
G0 X98.599 Y128.298
;TIME_ELAPSED:79.617952
;LAYER:-3
M140 S60
;TYPE:SUPPORT
G1 F1500 E234.87413
G1 F1800 X98.809 Y128.375 E234.90538
G1 X99.036 Y128.446 E234.9386
G1 X99.52 Y128.571 E235.00843
G1 X99.779 Y128.624 E235.04536
G1 X100.274 Y128.7 E235.11532
G1 X100.432 Y128.716 E235.1375
G1 X93.493 Y121.777 E236.50834
G1 X93.477 Y121.572 E236.53706
G1 X93.454 Y120.964 E236.62206
G1 X93.454 Y120.7 E236.65894
G1 X93.454 Y120.324 E236.71146
G1 X101.885 Y128.755 E238.37705
G1 X103.302 Y128.758 E238.57499
G1 X93.456 Y118.912 E240.52012
G1 X93.459 Y117.501 E240.71723
G1 X104.719 Y128.761 E242.9417
G1 X106.136 Y128.764 E243.13964
G1 X93.462 Y116.089 E245.64355
G1 X93.464 Y114.677 E245.8408
G1 X107.553 Y128.766 E248.62415
G1 X108.97 Y128.769 E248.8221
G1 X93.467 Y113.266 E251.8848
G1 X93.47 Y111.855 E252.0819
G1 X110.387 Y128.771 E255.42384
G1 X111.804 Y128.774 E255.62179
G1 X93.473 Y110.443 E259.24317
G1 X93.475 Y109.031 E259.44042
G1 X113.221 Y128.777 E263.34134
G1 X114.638 Y128.78 E263.53929
G1 X93.478 Y107.62 E267.71955
G1 X93.48 Y106.208 E267.9168
G1 X116.055 Y128.783 E272.37661
G1 X117.472 Y128.786 E272.57455
G1 X93.483 Y104.796 E277.3138
G1 X93.485 Y103.385 E277.51091
G1 X118.889 Y128.788 E282.5295
G1 X120.306 Y128.791 E282.72744
G1 X93.488 Y101.973 E288.02547
G1 X93.491 Y100.562 E288.22258
G1 X121.683 Y128.754 E293.79206
G1 X122.118 Y128.735 E293.85288
G1 X122.795 Y128.783 E293.94769
G1 X123.206 Y128.863 E294.00618
G1 X93.493 Y99.15 E299.87614
G1 X93.496 Y97.739 E300.07324
G1 X124.86 Y129.102 E306.26926
G1 X125.091 Y129.116 E306.30159
G1 X126.297 Y129.125 E306.47006
G1 X93.499 Y96.327 E312.94948
G1 X93.501 Y94.915 E313.14672
G1 X127.722 Y129.136 E319.90726
G1 X129.147 Y129.147 E320.10633
G1 X93.504 Y93.504 E327.14778
G1 X93.507 Y92.092 E327.34503
G1 X130.572 Y129.158 E334.66751
G1 X131.998 Y129.17 E334.86672
G1 X93.509 Y90.681 E342.47042
G1 X93.512 Y89.269 E342.66766
G1 X133.351 Y129.108 E350.53806
G1 X133.715 Y129.061 E350.58933
G1 X133.913 Y129.024 E350.61747
G1 X134.434 Y128.902 E350.69222
G1 X134.53 Y128.873 E350.70623
G1 X93.514 Y87.858 E358.80905
G1 X93.517 Y86.446 E359.0063
G1 X135.562 Y128.491 E367.3125
G1 X135.857 Y128.356 E367.35782
G1 X136.043 Y128.259 E367.38712
G1 X136.485 Y127.999 E367.45876
G1 X93.519 Y85.034 E375.94681
G1 X93.522 Y83.623 E376.14392
G1 X137.304 Y127.405 E384.79328
G1 X137.791 Y126.97 E384.8845
G1 X138.031 Y126.717 E384.93321
G1 X93.525 Y82.211 E393.7256
G1 X93.528 Y80.8 E393.9227
G1 X138.678 Y125.95 E402.84232
G1 X138.723 Y125.891 E402.85268
G1 X138.864 Y125.689 E402.8871
G1 X139.132 Y125.26 E402.95776
G1 X139.228 Y125.086 E402.98552
G1 X93.53 Y79.388 E412.01339
G1 X93.533 Y77.976 E412.21064
G1 X139.668 Y124.112 E421.32494
G1 X139.759 Y123.866 E421.36158
G1 X139.832 Y123.635 E421.39542
G1 X139.966 Y123.124 E421.46922
G1 X139.99 Y123.019 E421.48427
G1 X93.536 Y76.565 E430.66149
G1 X93.538 Y75.153 E430.85874
G1 X140.144 Y121.759 E440.06599
G1 X140.156 Y121.542 E440.09635
G1 X140.165 Y120.366 E440.26064
G1 X93.541 Y73.742 E449.47145
G1 X93.543 Y72.33 E449.66869
G1 X140.176 Y118.962 E458.88118
G1 X140.187 Y117.56 E459.07704
G1 X93.546 Y70.919 E468.2912
G1 X93.548 Y70.195 E468.39234
G1 X93.576 Y69.629 E468.47151
G1 X93.584 Y69.543 E468.48357
G1 X140.198 Y116.156 E477.69231
G1 X140.208 Y114.752 E477.88844
G1 X93.802 Y68.346 E487.05618
G1 X93.858 Y68.132 E487.08708
G1 X93.929 Y67.901 E487.12084
G1 X94.107 Y67.418 E487.19275
G1 X94.16 Y67.29 E487.2121
G1 X140.219 Y113.349 E496.31129
G1 X140.229 Y111.945 E496.50743
G1 X94.642 Y66.358 E505.51337
G1 X94.821 Y66.067 E505.5611
G1 X94.949 Y65.881 E505.59264
G1 X95.221 Y65.523 E505.65545
G1 X140.24 Y110.542 E514.54918
G1 X140.251 Y109.138 E514.74531
G1 X95.893 Y64.78 E523.50846
G1 X95.915 Y64.76 E523.51262
G1 X96.364 Y64.353 E523.59727
G1 X96.549 Y64.201 E523.63072
G1 X96.653 Y64.126 E523.64863
G1 X140.262 Y107.735 E532.26381
G1 X140.273 Y106.331 E532.45995
G1 X97.504 Y63.563 E540.90908
G1 X97.617 Y63.495 E540.92751
G1 X97.812 Y63.392 E540.95831
G1 X98.302 Y63.163 E541.03387
G1 X98.456 Y63.101 E541.05706
G1 X140.283 Y104.928 E549.3202
G1 X140.294 Y103.524 E549.51633
G1 X99.535 Y62.766 E557.56838
G1 X99.756 Y62.712 E557.60016
G1 X99.975 Y62.672 E557.63126
G1 X100.508 Y62.6 E557.70639
G1 X100.708 Y62.582 E557.73445
G1 X100.764 Y62.58 E557.74227
G1 X140.304 Y102.121 E565.5537
G1 X140.315 Y100.717 E565.74984
G1 X102.158 Y62.56 E573.28795
G1 X103.575 Y62.563 E573.48589
G1 X140.326 Y99.314 E580.74624
G1 X140.337 Y97.91 E580.94237
G1 X104.993 Y62.566 E587.92476
G1 X106.41 Y62.569 E588.12271
G1 X140.347 Y96.507 E594.82723
G1 X140.358 Y95.103 E595.02337
G1 X107.827 Y62.572 E601.45003
G1 X108.605 Y62.574 E601.55872
G1 X109.17 Y62.601 E601.63773
G1 X109.282 Y62.613 E601.65347
G1 X140.369 Y93.7 E607.79486
G1 X140.379 Y92.296 E607.991
G1 X110.976 Y62.893 E613.79971
G1 X111.526 Y62.926 E613.87668
G1 X112.216 Y62.88 E613.97328
G1 X112.325 Y62.864 E613.98867
G1 X112.359 Y62.862 E613.99343
G1 X140.391 Y90.893 E619.5312
G1 X140.401 Y89.49 E619.72719
G1 X113.744 Y62.832 E624.99351
G1 X115.169 Y62.843 E625.19258
G1 X140.412 Y88.086 E630.17947
G1 X140.422 Y86.682 E630.3756
G1 X116.594 Y62.854 E635.08294
G1 X118.018 Y62.864 E635.28187
G1 X140.433 Y85.279 E639.71007
G1 X140.444 Y83.875 E639.9062
G1 X119.443 Y62.875 E644.05496
G1 X120.868 Y62.885 E644.25403
G1 X140.455 Y82.472 E648.12354
G1 X140.466 Y81.069 E648.31953
G1 X122.293 Y62.896 E651.9097
G1 X123.718 Y62.907 E652.10877
G1 X140.476 Y79.665 E655.4194
G1 X140.487 Y78.261 E655.61553
G1 X125.143 Y62.917 E658.64682
G1 X126.567 Y62.928 E658.84575
G1 X140.497 Y76.858 E661.59769
G1 X140.508 Y75.454 E661.79382
G1 X127.992 Y62.938 E664.26642
G1 X129.417 Y62.949 E664.46549
G1 X140.519 Y74.051 E666.65875
G1 X140.53 Y72.648 E666.85474
G1 X130.842 Y62.96 E668.76866
G1 X132.267 Y62.97 E668.96772
G1 X140.541 Y71.244 E670.6023
G1 X140.541 Y71.091 E670.62367
G1 X140.543 Y70.806 E670.66348
G1 X140.52 Y70.143 E670.75615
G1 X140.503 Y69.945 E670.78391
G1 X140.479 Y69.768 E670.80887
G1 X133.745 Y63.035 E672.1391
G1 X133.751 Y63.035 E672.13994
G1 X134.291 Y63.121 E672.21633
G1 X134.499 Y63.165 E672.24603
G1 X135.005 Y63.298 E672.31911
G1 X135.241 Y63.373 E672.3537
G1 X135.649 Y63.525 E672.41452
G1 X139.993 Y67.868 E673.27261
G0 F11250 X139.939 Y67.737
G1 F1800 X139.714 Y67.25 E673.34755
G1 X139.601 Y67.038 E673.3811
G1 X139.343 Y66.6 E673.45212
G1 X139.205 Y66.393 E673.48687
G1 X138.9 Y65.979 E673.5587
G1 X138.747 Y65.794 E673.59224
G1 X138.342 Y65.345 E673.67671
G1 X138.28 Y65.278 E673.68946
G1 X137.863 Y64.886 E673.76941
G1 X137.677 Y64.729 E673.80341
G1 X137.257 Y64.406 E673.87742
G1 X137.062 Y64.269 E673.91071
G1 X136.618 Y63.993 E673.98374
G1 X136.415 Y63.88 E674.0162
G1 X135.949 Y63.65 E674.08879
G1 X135.719 Y63.55 E674.12383
G1 X135.649 Y63.525 E674.13421
G1 F1500 E667.13421
G0 F11250 X136.02 Y62.526
G0 X134.476 Y62.072
G0 X132.862 Y61.909
G0 X108.484 Y61.506
G0 X100.65 Y61.519
G0 X99.531 Y61.673
G0 X98.141 Y62.081
G0 X97.098 Y62.566
G0 X95.89 Y63.367
G0 X94.985 Y64.184
G0 X93.935 Y65.479
G0 X93.231 Y66.761
G0 X92.838 Y67.833
G0 X92.545 Y69.261
G0 X92.481 Y70.319
G0 X92.414 Y121.632
G0 X92.501 Y122.278
G0 X92.783 Y123.608
G0 X93.911 Y123.61
G1 F1500 E674.13421
G1 F1800 X98.599 Y128.298 E675.06035
G1 X98.296 Y128.187 E675.10543
G1 X98.103 Y128.106 E675.13467
G1 X97.63 Y127.876 E675.20814
G1 X97.41 Y127.755 E675.24321
G1 X96.964 Y127.481 E675.31633
G1 X96.778 Y127.353 E675.34787
G1 X96.348 Y127.024 E675.42351
G1 X96.178 Y126.882 E675.45445
G1 X95.655 Y126.388 E675.55495
G1 X95.249 Y125.939 E675.63951
G1 X95.097 Y125.753 E675.67306
G1 X94.794 Y125.339 E675.74473
G1 X94.651 Y125.124 E675.7808
G1 X94.39 Y124.684 E675.85227
G1 X94.288 Y124.49 E675.88288
G1 X94.057 Y123.995 E675.95919
G1 X93.974 Y123.79 E675.99009
G1 F1500 E668.99009
G0 F300 X93.974 Y123.79 Z1.036
G0 F11250 X93.086 Y124.429
G0 X93.754 Y125.699
G0 X94.441 Y126.633
G0 X95.482 Y127.689
G0 X96.375 Y128.369
G0 X97.657 Y129.073
G0 X98.739 Y129.469
G0 X100.147 Y129.758
G0 X100.751 Y129.794
G0 X123.268 Y129.964
G0 X123.897 Y129.2
;TIME_ELAPSED:192.386087
;LAYER:-2
;TYPE:SUPPORT-INTERFACE
G1 F1500 E675.99009
G1 F2400 X134.028 Y129.2 E676.46183
G1 X133.953 Y129.219 E676.46543
G1 X133.175 Y129.334 E676.50205
G1 X132.435 Y129.371 E676.53655
G1 X125.157 Y129.318 E676.87545
G1 X124.448 Y129.279 E676.90852
G1 F1500 E669.90852
G0 F11250 X124.399 Y130.144
G0 X133.022 Y130.215
G0 X133.873 Y130.114
G0 X134.028 Y129.2
G1 F1500 E676.90852
G1 F2400 X134.721 Y129.026 E676.94179
G1 X135.347 Y128.8 E676.97278
G1 X99.651 Y128.8 E678.63493
G1 X98.969 Y128.636 E678.6676
