;FLAVOR:Marlin
;TIME:3976
;Filament used: 4.64724m
;Layer height: 0.28
;MINX:81.962
;MINY:79.103
;MINZ:0.336
;MAXX:131.747
;MAXY:158.743
;MAXZ:32.126
;Generated with Cura_SteamEngine 4.4.0
M140 S60
M105
M190 S60
M104 S205
M105
M109 S205
M82 ;absolute extrusion mode
M201 X500.00 Y500.00 Z100.00 E5000.00 ;Setup machine max acceleration
M203 X500.00 Y500.00 Z10.00 E50.00 ;Setup machine max feedrate
M204 P500.00 R1000.00 T500.00 ;Setup Print/Retract/Travel acceleration
M205 X8.00 Y8.00 Z0.40 E5.00 ;Setup Jerk
M220 S100 ;Reset Feedrate
M221 S100 ;Reset Flowrate
G28
G29 ;Home
G92 E0 ;Reset Extruder
G1 Z2.0 F3000 ;Move Z Axis up
G1 X10.1 Y20 Z0.28 F5000.0 ;Move to start position
G1 X10.1 Y200.0 Z0.28 F1500.0 E15 ;Draw the first line
G1 X10.4 Y200.0 Z0.28 F5000.0 ;Move to side a little
G1 X10.4 Y20 Z0.28 F1500.0 E30 ;Draw the second line
G92 E0 ;Reset Extruder
G1 Z2.0 F3000 ;Move Z Axis up
G92 E0
G92 E0
G1 F1500 E-6.5
;LAYER_COUNT:111
;LAYER:-6
M107
G0 F11250 X93.546 Y82.492 Z0.336
;TYPE:SUPPORT-INTERFACE
G1 F1500 E0
G1 F2025 X93.685 Y82.351 E0.02213
G1 X94.08 Y81.986 E0.08223
G1 X94.267 Y81.829 E0.10952
G1 X94.681 Y81.516 E0.16752
G1 X94.868 Y81.389 E0.19278
G1 X95.322 Y81.113 E0.25216
G1 X95.537 Y80.997 E0.27946
G1 X96.009 Y80.772 E0.33789
G1 X96.212 Y80.686 E0.36253
G1 X96.711 Y80.507 E0.42177
G1 X96.947 Y80.435 E0.44935
G1 X97.444 Y80.311 E0.50659
G1 X97.67 Y80.265 E0.53237
G1 X98.201 Y80.188 E0.59233
G1 X98.415 Y80.166 E0.61637
G1 X98.97 Y80.141 E0.67846
G1 X99.188 Y80.141 E0.70282
G1 X99.717 Y80.17 E0.76203
G1 X99.933 Y80.191 E0.78628
G1 X100.558 Y80.286 E0.85693
G1 X120.114 Y83.738 E3.07618
G1 X120.677 Y83.866 E3.1407
G1 X120.92 Y83.935 E3.16893
G1 X121.403 Y84.097 E3.22586
G1 X121.634 Y84.188 E3.25361
G1 X122.09 Y84.395 E3.30957
G1 X122.309 Y84.508 E3.33711
G1 X122.769 Y84.772 E3.39638
G1 X122.974 Y84.905 E3.42369
G1 X123.377 Y85.196 E3.47924
G1 X123.563 Y85.344 E3.50581
G1 X123.981 Y85.714 E3.56819
G1 X124.122 Y85.853 E3.59032
G1 X124.492 Y86.253 E3.65121
G1 X124.644 Y86.435 E3.67771
G1 X124.957 Y86.849 E3.73571
G1 X125.084 Y87.036 E3.76097
G1 X125.362 Y87.494 E3.82085
G1 X125.479 Y87.711 E3.8484
G1 X125.698 Y88.17 E3.90523
G1 X125.788 Y88.384 E3.93118
G1 X125.968 Y88.883 E3.99046
G1 X126.036 Y89.106 E4.01651
G1 X126.168 Y89.631 E4.07701
G1 X126.207 Y89.827 E4.09934
G1 X126.283 Y90.348 E4.15818
G1 X126.307 Y90.588 E4.18514
G1 X126.332 Y91.139 E4.24678
G1 X126.332 Y91.36 E4.27148
G1 X126.302 Y91.907 E4.3327
G1 X126.286 Y92.078 E4.35189
G1 X126.215 Y92.575 E4.408
G1 X125.343 Y97.5 E4.96695
G1 X125.21 Y98.079 E5.03334
G1 X125.15 Y98.298 E5.05871
G1 X124.982 Y98.799 E5.11777
G1 X124.894 Y99.022 E5.14456
G1 X124.68 Y99.496 E5.20268
G1 X124.573 Y99.703 E5.22872
G1 X124.314 Y100.152 E5.28665
G1 X124.123 Y100.447 E5.32592
G1 X123.795 Y101.031 E5.40077
G1 X123.539 Y101.664 E5.47708
G1 X123.364 Y102.324 E5.55339
G1 X123.274 Y103.001 E5.62971
G1 X123.27 Y103.69 E5.70671
G1 X123.421 Y104.673 E5.81785
G1 X123.47 Y104.867 E5.84021
G1 X123.52 Y105.122 E5.86925
G1 X123.594 Y105.631 E5.92673
G1 X123.616 Y105.854 E5.95178
G1 X123.641 Y106.405 E6.01342
G1 X123.641 Y106.626 E6.03811
G1 X123.611 Y107.169 E6.09889
G1 X123.594 Y107.346 E6.11876
G1 X123.507 Y107.933 E6.18508
G1 X122.563 Y113.258 E6.78944
G1 X122.433 Y113.83 E6.855
G1 X122.365 Y114.068 E6.88266
G1 X122.196 Y114.568 E6.94164
G1 X122.114 Y114.778 E6.96684
G1 X121.9 Y115.252 E7.02496
G1 X121.798 Y115.452 E7.05005
G1 X121.524 Y115.925 E7.11113
G1 X121.399 Y116.116 E7.13664
G1 X121.093 Y116.541 E7.19517
G1 X120.944 Y116.729 E7.22198
G1 X120.593 Y117.124 E7.28103
G1 X120.445 Y117.274 E7.30458
G1 X120.046 Y117.643 E7.36532
G1 X119.862 Y117.797 E7.39213
G1 X119.45 Y118.107 E7.44975
G1 X119.265 Y118.233 E7.47476
G1 X118.792 Y118.52 E7.53659
G1 X118.612 Y118.618 E7.5595
G1 X118.119 Y118.853 E7.62053
G1 X117.915 Y118.938 E7.64523
G1 X117.416 Y119.119 E7.70455
G1 X117.194 Y119.187 E7.7305
G1 X116.686 Y119.314 E7.78901
G1 X116.45 Y119.36 E7.81589
G1 X115.935 Y119.435 E7.87405
G1 X115.705 Y119.458 E7.89988
G1 X115.157 Y119.483 E7.96118
G1 X114.94 Y119.483 E7.98543
G1 X114.389 Y119.453 E8.0471
G1 X114.213 Y119.436 E8.06686
G1 X113.683 Y119.359 E8.12671
G1 X113.018 Y119.294 E8.20138
G1 X112.335 Y119.314 E8.27774
G1 X111.66 Y119.421 E8.35412
G1 X111.004 Y119.611 E8.43044
G1 X110.378 Y119.882 E8.50668
G1 X109.791 Y120.23 E8.58294
G1 X109.252 Y120.65 E8.6593
G1 X108.77 Y121.134 E8.73564
G1 X108.355 Y121.675 E8.81183
G1 X108.009 Y122.265 E8.88827
G1 X107.741 Y122.896 E8.96488
G1 X107.519 Y123.737 E9.06209
G1 X106.467 Y129.698 E9.73855
G1 X106.393 Y130.364 E9.81343
G1 X106.402 Y131.046 E9.88966
G1 X106.5 Y131.723 E9.9661
G1 X106.68 Y132.381 E10.04234
G1 X106.943 Y133.011 E10.11863
G1 X107.283 Y133.603 E10.19493
G1 X107.694 Y134.148 E10.27121
G1 X108.172 Y134.637 E10.34763
G1 X108.71 Y135.063 E10.42432
G1 X109.489 Y135.511 E10.52475
G1 X114.104 Y137.666 E11.09395
G1 X114.577 Y137.909 E11.15338
G1 X120.302 Y141.062 E11.88378
G1 X120.907 Y141.348 E11.95857
G1 X121.463 Y141.533 E12.02405
G1 X125.154 Y142.545 E12.45176
G1 X125.707 Y142.725 E12.51675
G1 X125.911 Y142.804 E12.5412
G1 X126.401 Y143.021 E12.60109
G1 X126.603 Y143.122 E12.62632
G1 X127.067 Y143.386 E12.68598
G1 X127.268 Y143.514 E12.71261
G1 X127.695 Y143.816 E12.77106
G1 X127.876 Y143.958 E12.79677
G1 X128.273 Y144.305 E12.8557
G1 X128.444 Y144.469 E12.88218
G1 X128.812 Y144.862 E12.94234
G1 X128.943 Y145.015 E12.96485
G1 X129.271 Y145.443 E13.02511
G1 X129.411 Y145.646 E13.05267
G1 X129.676 Y146.076 E13.10912
G1 X129.794 Y146.288 E13.13623
G1 X130.022 Y146.755 E13.19431
G1 X130.121 Y146.986 E13.2224
G1 X130.295 Y147.457 E13.27851
G1 X130.373 Y147.708 E13.30788
G1 X130.499 Y148.192 E13.36377
G1 X130.551 Y148.442 E13.39231
G1 X130.628 Y148.939 E13.44852
G1 X130.655 Y149.189 E13.47662
G1 X130.683 Y149.702 E13.53403
G1 X130.683 Y149.924 E13.55884
G1 X130.657 Y150.492 E13.62238
G1 X130.639 Y150.678 E13.64327
G1 X130.562 Y151.206 E13.7029
G1 X130.513 Y151.456 E13.73137
G1 X130.386 Y151.96 E13.78945
G1 X130.32 Y152.176 E13.81469
G1 X130.144 Y152.667 E13.87298
G1 X130.048 Y152.894 E13.90053
G1 X129.814 Y153.384 E13.96121
G1 X129.726 Y153.549 E13.98211
G1 X129.443 Y154.016 E14.04313
G1 X129.301 Y154.225 E14.07137
G1 X129.003 Y154.619 E14.12658
G1 X128.833 Y154.822 E14.15617
G1 X128.475 Y155.209 E14.21508
G1 X128.323 Y155.359 E14.23895
G1 X127.93 Y155.708 E14.29768
G1 X127.742 Y155.857 E14.32449
G1 X127.321 Y156.162 E14.38259
G1 X127.115 Y156.294 E14.40993
G1 X126.672 Y156.551 E14.46717
G1 X126.466 Y156.657 E14.49306
G1 X125.959 Y156.886 E14.55523
G1 X125.762 Y156.964 E14.57891
G1 X125.268 Y157.13 E14.63715
G1 X125.035 Y157.196 E14.66421
G1 X124.538 Y157.309 E14.72117
G1 X124.292 Y157.351 E14.74906
G1 X123.483 Y157.44 E14.84001
G1 X123.316 Y157.452 E14.85872
G1 X119.163 Y157.627 E15.32325
G1 X115.503 Y157.681 E15.73232
G1 X115.22 Y157.679 E15.76394
G1 X109.634 Y157.521 E16.38845
G1 X109.119 Y157.487 E16.44613
G1 X104.587 Y157.061 E16.95483
G1 X103.962 Y156.976 E17.02532
G1 X100.223 Y156.325 E17.44945
G1 X99.521 Y156.167 E17.52987
G1 X96.493 Y155.335 E17.8808
G1 X95.622 Y155.037 E17.98368
G1 X93.381 Y154.137 E18.25356
G1 X93.22 Y154.066 E18.27323
G1 X92.411 Y153.674 E18.37369
G1 X92.241 Y153.584 E18.39519
G1 X90.447 Y152.555 E18.62631
G1 X89.9 Y152.204 E18.69894
G1 X89.745 Y152.096 E18.72005
G1 X89.398 Y151.829 E18.76898
G1 X87.92 Y150.628 E18.98181
G1 X87.494 Y150.247 E19.04568
G1 X87.328 Y150.083 E19.07176
G1 X86.902 Y149.618 E19.14224
G1 X85.817 Y148.334 E19.3301
G1 X85.453 Y147.86 E19.39689
G1 X85.319 Y147.663 E19.42351
G1 X84.923 Y147.011 E19.50876
G1 X84.134 Y145.549 E19.69442
G1 X83.901 Y145.066 E19.75435
G1 X83.798 Y144.821 E19.78405
G1 X83.56 Y144.154 E19.8632
G1 X83.121 Y142.697 E20.03325
G1 X82.976 Y142.121 E20.09963
G1 X82.936 Y141.92 E20.12253
G1 X82.842 Y141.289 E20.19383
G1 X82.669 Y139.609 E20.38257
G1 X82.635 Y138.993 E20.45151
G1 X82.633 Y138.771 E20.47632
G1 X82.654 Y138.232 E20.53661
G1 X82.779 Y136.451 E20.73613
G1 X82.879 Y135.647 E20.82667
G1 X91.57 Y86.355 E26.42022
G1 X91.697 Y85.799 E26.48396
G1 X91.765 Y85.558 E26.51194
G1 X91.929 Y85.069 E26.56958
G1 X92.009 Y84.867 E26.59386
G1 X92.238 Y84.36 E26.65603
G1 X92.344 Y84.154 E26.68192
G1 X92.599 Y83.713 E26.73885
G1 X92.733 Y83.505 E26.7665
G1 X93.039 Y83.082 E26.82485
G1 X93.182 Y82.903 E26.85045
G1 X93.389 Y82.669 E26.88536
G0 F1822.5 X93.546 Y82.492
G0 F11250 X94.4 Y81.728
G1 F2025 X94.4 Y154.546 E35.02307
G0 F11250 X96 Y155.166
G1 F2025 X96 Y80.776 E43.33645
G0 F11250 X97.6 Y80.279
G1 F2025 X97.6 Y155.639 E51.75824
G0 F11250 X99.2 Y156.078
G1 F2025 X99.2 Y80.142 E60.2444
G0 F11250 X100.8 Y80.329
G1 F2025 X100.8 Y156.425 E68.74843
G0 F11250 X102.4 Y156.704
G1 F2025 X102.4 Y80.612 E77.25202
G0 F11250 X104 Y80.894
G1 F2025 X104 Y156.981 E85.75505
G0 F11250 X105.6 Y157.156
G1 F2025 X105.6 Y81.177 E94.24601
G0 F11250 X107.2 Y81.459
G1 F2025 X107.2 Y125.545 E99.1728
G1 F1500 E92.6728
G0 F11250 X108.249 Y125.729
G0 X109.575 Y121.835
G0 X108.8 Y121.104
G1 F1500 E99.1728
G1 F2025 X108.8 Y81.741 E103.57178
G0 F11250 X110.4 Y82.024
G1 F2025 X110.4 Y119.873 E107.80156
G0 F11250 X112 Y119.368
G1 F2025 X112 Y82.306 E111.94339
G0 F11250 X113.6 Y82.589
G1 F2025 X113.6 Y119.35 E116.05158
G0 F11250 X115.2 Y119.482
G1 F2025 X115.2 Y82.871 E120.143
G0 F11250 X116.8 Y83.154
G1 F2025 X116.8 Y119.286 E124.1809
G0 F11250 X118.4 Y118.72
G1 F2025 X118.4 Y83.436 E128.12403
G0 F11250 X120 Y83.718
G1 F2025 X120 Y117.682 E131.91965
G0 F11250 X121.6 Y115.794
G1 F2025 X121.6 Y84.175 E135.4532
G0 F11250 X123.2 Y85.069
G1 F2025 X123.2 Y109.665 E138.2019
G1 F1500 E131.7019
G0 F11250 X124.25 Y109.849
G0 X124.488 Y108.382
G0 X125.634 Y99.969
G0 X124.8 Y99.231
G1 F1500 E138.2019
G1 F2025 X124.8 Y86.642 E139.60877
G1 F1500 E133.10877
G0 F11250 X125.471 Y85.765
G0 X124.699 Y84.928
G0 X123.576 Y84.026
G0 X122.562 Y83.44
G0 X121.225 Y82.915
G0 X120.19 Y82.666
G0 X99.801 Y79.11
G0 X98.345 Y79.103
G0 X97.21 Y79.272
G0 X95.821 Y79.696
G0 X94.788 Y80.193
G0 X93.597 Y81.002
G0 X93.124 Y81.438
G0 X92.197 Y82.43
G0 X92.8 Y83.412
G1 F1500 E139.60877
G1 F2025 X92.8 Y153.862 E147.48185
G0 F11250 X91.2 Y152.986
G1 F2025 X91.2 Y88.453 E154.69367
G1 F1500 E148.19367
G0 F11250 X90.148 Y88.269
G0 X88.549 Y97.344
G0 X89.6 Y97.528
G1 F1500 E154.69367
G1 F2025 X89.6 Y151.984 E160.77935
G0 F11250 X88 Y150.693
G1 F2025 X88 Y106.602 E165.7067
G1 F1500 E159.2067
G0 F11250 X86.949 Y106.418
G0 X85.35 Y115.493
G0 X86.4 Y115.677
G1 F1500 E165.7067
G1 F2025 X86.4 Y149.023 E169.43325
G0 F11250 X84.8 Y146.783
G1 F2025 X84.8 Y124.751 E171.89541
G1 F1500 E165.39541
G0 F11250 X83.75 Y124.567
G0 X82.151 Y133.643
G0 X83.2 Y133.826
G1 F1500 E171.89541
G1 F2025 X83.2 Y142.959 E172.91606
G1 F1500 E166.41606
G0 F11250 X82.179 Y143.27
G0 X82.926 Y145.494
G0 X84.425 Y148.242
G0 X85.061 Y149.093
G0 X86.763 Y151.022
G0 X89.314 Y153.094
G0 X91.923 Y154.621
G0 X92.968 Y155.117
G0 X96.167 Y156.349
G0 X100.144 Y157.395
G0 X104.536 Y158.127
G0 X109.717 Y158.59
G0 X114.926 Y158.743
G0 X118.792 Y158.701
G0 X123.587 Y158.5
G0 X124.752 Y158.352
G0 X126.132 Y157.962
G0 X127.173 Y157.491
G0 X128.391 Y156.701
G0 X129.244 Y155.945
G0 X130.171 Y154.838
G0 X130.767 Y153.858
G0 X131.333 Y152.502
G0 X131.61 Y151.394
G0 X131.747 Y149.956
G0 X131.685 Y148.809
G0 X131.394 Y147.407
G0 X130.994 Y146.321
G0 X130.296 Y145.056
G0 X129.599 Y144.146
G0 X128.558 Y143.142
G0 X127.62 Y142.475
G0 X108.122 Y132.928
G0 X107.2 Y133.459
G1 F1500 E172.91606
G1 F2025 X107.2 Y157.306 E175.58106
G0 F11250 X108.8 Y157.457
G1 F2025 X108.8 Y135.115 E178.07787
G0 F11250 X110.4 Y135.937
G1 F2025 X110.4 Y157.542 E180.49232
G0 F11250 X112 Y157.587
G1 F2025 X112 Y136.684 E182.82831
G0 F11250 X113.6 Y137.431
G1 F2025 X113.6 Y157.633 E185.08597
G0 F11250 X115.2 Y157.678
G1 F2025 X115.2 Y138.253 E187.25679
G0 F11250 X116.8 Y139.134
G1 F2025 X116.8 Y157.662 E189.32737
G0 F11250 X118.4 Y157.639
G1 F2025 X118.4 Y140.015 E191.29692
G0 F11250 X120 Y140.896
G1 F2025 X120 Y157.592 E193.16277
G0 F11250 X121.6 Y157.525
G1 F2025 X121.6 Y141.571 E194.94569
G0 F11250 X123.2 Y142.01
G1 F2025 X123.2 Y157.457 E196.67196
G0 F11250 X124.8 Y157.25
G1 F2025 X124.8 Y142.448 E198.32614
G0 F11250 X126.4 Y143.021
G1 F2025 X126.4 Y156.687 E199.85337
G0 F11250 X128 Y155.646
G1 F2025 X128 Y144.067 E201.14737
G0 F11250 X129.6 Y145.953
G1 F2025 X129.6 Y153.757 E202.0195
G1 F1500 E195.5195
G0 F300 X129.6 Y153.757 Z0.616
G0 F11250 X130.767 Y153.858
G0 X131.333 Y152.502
G0 X131.61 Y151.394
G0 X131.747 Y149.956
G0 X131.685 Y148.809
G0 X131.604 Y148.413
G0 X131.306 Y147.125
G0 X130.121 Y146.985
;TIME_ELAPSED:71.497372
;LAYER:-5
M140 S60
;TYPE:SUPPORT
G1 F1500 E202.0195
G1 F2025 X130.021 Y146.754 E202.04294
G1 X129.793 Y146.287 E202.09134
G1 X129.676 Y146.075 E202.11389
G1 X129.411 Y145.644 E202.16101
G1 X129.271 Y145.442 E202.1839
G1 X128.943 Y145.014 E202.23411
G1 X128.811 Y144.861 E202.25293
G1 X128.443 Y144.468 E202.30307
G1 X128.272 Y144.304 E202.32514
G1 X127.876 Y143.957 E202.37417
G1 X127.694 Y143.815 E202.39567
G1 X127.267 Y143.512 E202.44443
G1 X127.067 Y143.385 E202.46649
G1 X126.603 Y143.121 E202.51621
G1 X126.4 Y143.02 E202.53733
G1 X125.91 Y142.803 E202.58723
G1 X125.783 Y142.754 E202.59991
G1 X130.183 Y147.153 E203.17934
G1 X130.295 Y147.456 E203.20942
G1 X130.372 Y147.706 E203.23378
G1 X130.499 Y148.191 E203.28047
G1 X130.551 Y148.44 E203.30416
G1 X130.628 Y148.937 E203.351
G1 X130.637 Y149.022 E203.35896
G1 X123.783 Y142.168 E204.26166
G1 X121.835 Y141.634 E204.44976
G1 X130.659 Y150.458 E205.61191
G1 X130.657 Y150.491 E205.61499
G1 X130.639 Y150.677 E205.6324
G1 X130.562 Y151.205 E205.68209
G1 X130.513 Y151.455 E205.70581
G1 X130.459 Y151.672 E205.72664
G1 X119.292 Y140.505 E207.19737
G1 X116.144 Y138.771 E207.53207
G1 X130.113 Y152.74 E209.37184
G1 X130.048 Y152.893 E209.38732
G1 X129.814 Y153.383 E209.43789
G1 X129.725 Y153.548 E209.45535
G1 X129.643 Y153.685 E209.47022
G1 X113.202 Y137.244 E211.63555
G1 X110.55 Y136.006 E211.90811
G1 X129.072 Y154.528 E214.34752
G1 X129.003 Y154.618 E214.35808
G1 X128.833 Y154.821 E214.38274
G1 X128.474 Y155.207 E214.43183
G1 X128.405 Y155.275 E214.44086
G1 X86.759 Y113.629 E219.92578
G1 X86.548 Y114.832 E220.03952
G1 X127.642 Y155.926 E225.45174
G1 X127.32 Y156.16 E225.48881
G1 X127.115 Y156.293 E225.51157
G1 X126.784 Y156.483 E225.54711
G1 X86.336 Y116.034 E230.87432
G1 X86.124 Y117.236 E230.98798
G1 X125.825 Y156.938 E236.21681
G1 X125.761 Y156.963 E236.22321
G1 X125.268 Y157.129 E236.27165
G1 X125.034 Y157.195 E236.29429
G1 X124.735 Y157.262 E236.32283
G1 X85.912 Y118.438 E241.43602
G1 X85.7 Y119.641 E241.54978
G1 X123.496 Y157.437 E246.52764
G1 X123.482 Y157.439 E246.52896
G1 X123.315 Y157.45 E246.54454
G1 X122.144 Y157.5 E246.6537
G1 X85.488 Y120.843 E251.48148
G1 X85.276 Y122.045 E251.59515
G1 X120.787 Y157.557 E256.27214
G1 X119.431 Y157.614 E256.39853
G1 X85.064 Y123.248 E260.92471
G1 X84.852 Y124.45 E261.03838
G1 X118.045 Y157.643 E265.41001
G1 X116.651 Y157.663 E265.53985
G1 X84.64 Y125.652 E269.75581
G1 X84.428 Y126.854 E269.86947
G1 X115.252 Y157.678 E273.9291
G1 X115.219 Y157.678 E273.93217
G1 X113.797 Y157.638 E274.06465
G1 X84.216 Y128.057 E277.96057
G1 X84.004 Y129.259 E278.07424
G1 X112.342 Y157.597 E281.80645
G1 X110.887 Y157.556 E281.94201
G1 X83.792 Y130.461 E285.51051
G1 X83.58 Y131.663 E285.62418
G1 X109.422 Y157.505 E289.02766
G1 X109.118 Y157.486 E289.05603
G1 X107.871 Y157.368 E289.17268
G1 X83.368 Y132.866 E292.39974
G1 X83.157 Y134.068 E292.51339
G1 X106.309 Y157.221 E295.56265
G1 X104.749 Y157.075 E295.70857
G1 X82.945 Y135.27 E298.5803
G1 X82.879 Y135.646 E298.61585
G1 X82.779 Y136.45 E298.6913
G1 X82.774 Y136.514 E298.69728
G1 X103.082 Y156.822 E301.37191
G1 X101.369 Y156.523 E301.53385
G1 X82.681 Y137.835 E303.99513
G1 X82.653 Y138.23 E304.032
G1 X82.633 Y138.77 E304.08233
G1 X82.634 Y138.992 E304.103
G1 X82.646 Y139.215 E304.1238
G1 X99.619 Y156.187 E306.35914
G1 X99.521 Y156.165 E306.36849
G1 X97.676 Y155.658 E306.54668
G1 X82.788 Y140.77 E308.50748
G1 X82.841 Y141.288 E308.55597
G1 X82.936 Y141.919 E308.6154
