;FLAVOR:Marlin
;TIME:2147
;Filament used: 1.6018m
;Layer height: 0.28
;MINX:100.604
;MINY:96.473
;MINZ:0.28
;MAXX:120.025
;MAXY:124.435
;MAXZ:15.4
;Generated with Cura_SteamEngine 4.4.0
M140 S55
M105
M190 S55
M104 S210
M105
M109 S210
M82 ;absolute extrusion mode
M201 X500.00 Y500.00 Z100.00 E5000.00 ;Setup machine max acceleration
M203 X500.00 Y500.00 Z10.00 E50.00 ;Setup machine max feedrate
M204 P500.00 R1000.00 T500.00 ;Setup Print/Retract/Travel acceleration
M205 X8.00 Y8.00 Z0.40 E5.00 ;Setup Jerk
M220 S100 ;Reset Feedrate
M221 S100 ;Reset Flowrate
G28
G29 ;Home
G92 E0 ;Reset Extruder
G1 Z2.0 F3000 ;Move Z Axis up
G1 X10.1 Y20 Z0.28 F5000.0 ;Move to start position
G1 X10.1 Y200.0 Z0.28 F1500.0 E15 ;Draw the first line
G1 X10.4 Y200.0 Z0.28 F5000.0 ;Move to side a little
G1 X10.4 Y20 Z0.28 F1500.0 E30 ;Draw the second line
G92 E0 ;Reset Extruder
G1 Z2.0 F3000 ;Move Z Axis up
G92 E0
G92 E0
;LAYER_COUNT:55
;LAYER:0
M107
;MESH:clamp-head-5mm-v01.obj(1)
G0 F6000 X104.822 Y123.077 Z0.28
;TYPE:WALL-INNER
G1 F1200 X104.622 Y123.06 E0.00935
G1 X101.036 Y122.746 E0.17696
G1 X101.421 Y117.831 E0.40653
G1 X101.748 Y112.455 E0.65732
G1 X101.982 Y107.125 E0.90575
G1 X102.124 Y101.693 E1.15877
G1 X102.166 Y96.873 E1.38322
G1 X105.764 Y96.873 E1.55076
G1 X105.765 Y96.873 E1.5508
G1 X105.965 Y96.873 E1.56011
G1 X105.965 Y97.073 E1.56614
G1 X105.964 Y97.074 E1.56621
G1 X105.922 Y101.804 E1.78647
G1 X105.779 Y107.239 E2.03963
G1 X105.536 Y112.779 E2.29785
G1 X105.205 Y118.203 E2.55088
G1 X104.837 Y122.877 E2.76919
G1 X104.822 Y123.077 E2.77521
G0 F6000 X105.189 Y123.51
;TYPE:WALL-OUTER
G1 F1200 X100.606 Y123.109 E2.98943
G1 X101.022 Y117.803 E3.23725
G1 X101.349 Y112.434 E3.48772
G1 X101.582 Y107.111 E3.73582
G1 X101.724 Y101.686 E3.98852
G1 X101.769 Y96.473 E4.23126
G1 X106.369 Y96.473 E4.44546
G1 X106.322 Y101.815 E4.69421
G1 X106.179 Y107.257 E4.9477
G1 X105.936 Y112.797 E5.20592
G1 X105.604 Y118.234 E5.45956
G1 X105.189 Y123.51 E5.70599
G0 F6000 X104.942 Y123.217
G0 X104.743 Y122.676
G0 X104.465 Y122.654
;TYPE:SKIN
G1 F1200 X101.455 Y122.391 E5.84668
G1 X101.811 Y117.858 E6.05841
G1 X102.138 Y112.475 E6.30952
G1 X102.372 Y107.139 E6.55823
G1 X102.514 Y101.699 E6.81163
G1 X102.552 Y97.263 E7.01819
G1 X105.571 Y97.263 E7.15877
G1 X105.532 Y101.794 E7.36976
G1 X105.389 Y107.222 E7.6226
G1 X105.146 Y112.755 E7.88049
G1 X104.81 Y118.261 E8.13734
G1 X104.465 Y122.654 E8.34253
G0 F6000 X104.743 Y122.676
G0 X104.655 Y122.88
G0 X101.231 Y122.58
G0 X101.207 Y121.975
G0 X101.645 Y122.009
G1 F1200 X101.903 Y122.268 E8.35955
G0 F6000 X102.524 Y122.323
G1 F1200 X101.686 Y121.485 E8.41474
G0 F6000 X101.727 Y120.96
G1 F1200 X103.143 Y122.376 E8.50798
G0 F6000 X103.763 Y122.431
G1 F1200 X101.768 Y120.436 E8.63936
G0 F6000 X101.809 Y119.911
G1 F1200 X104.323 Y122.425 E8.80491
G0 F6000 X104.364 Y121.9
G1 F1200 X101.85 Y119.387 E8.97043
G0 F6000 X101.892 Y118.863
G1 F1200 X104.405 Y121.376 E9.13591
G0 F6000 X104.446 Y120.851
G1 F1200 X101.933 Y118.338 E9.3014
G0 F6000 X101.973 Y117.813
G1 F1200 X104.487 Y120.326 E9.46692
G0 F6000 X104.529 Y119.802
G1 F1200 X102.006 Y117.28 E9.63303
G0 F6000 X102.039 Y116.746
G1 F1200 X104.57 Y119.278 E9.79973
G0 F6000 X104.611 Y118.753
G1 F1200 X102.07 Y116.212 E9.96706
G0 F6000 X102.103 Y115.679
G1 F1200 X104.652 Y118.228 E10.13492
G0 F6000 X104.685 Y117.695
G1 F1200 X102.135 Y115.146 E10.3028
G0 F6000 X102.168 Y114.613
G1 F1200 X104.717 Y117.162 E10.47066
G0 F6000 X104.75 Y116.629
G1 F1200 X102.2 Y114.079 E10.63858
G0 F6000 X102.232 Y113.546
G1 F1200 X104.782 Y116.096 E10.8065
G0 F6000 X104.815 Y115.563
G1 F1200 X102.265 Y113.013 E10.97443
G0 F6000 X102.297 Y112.48
G1 F1200 X104.847 Y115.03 E11.14235
G0 F6000 X104.88 Y114.496
G1 F1200 X102.321 Y111.937 E11.31086
G0 F6000 X102.345 Y111.396
G1 F1200 X104.912 Y113.962 E11.47987
G0 F6000 X104.944 Y113.429
G1 F1200 X102.368 Y110.853 E11.64951
G0 F6000 X102.392 Y110.312
G1 F1200 X104.977 Y112.896 E11.8197
G0 F6000 X105.003 Y112.357
G1 F1200 X102.416 Y109.77 E11.99006
G0 F6000 X102.439 Y109.228
G1 F1200 X105.027 Y111.815 E12.16045
G0 F6000 X105.051 Y111.273
G1 F1200 X102.464 Y108.686 E12.33081
G0 F6000 X102.487 Y108.144
G1 F1200 X105.074 Y110.731 E12.50117
G0 F6000 X105.098 Y110.189
G1 F1200 X102.511 Y107.602 E12.67152
G0 F6000 X102.534 Y107.059
G1 F1200 X105.122 Y109.648 E12.84198
G0 F6000 X105.146 Y109.105
G1 F1200 X102.548 Y106.507 E13.01306
G0 F6000 X102.562 Y105.956
G1 F1200 X105.17 Y108.564 E13.1848
G0 F6000 X105.193 Y108.021
G1 F1200 X102.576 Y105.404 E13.35714
G0 F6000 X102.591 Y104.854
G1 F1200 X105.217 Y107.48 E13.53007
G0 F6000 X105.236 Y106.933
G1 F1200 X102.605 Y104.302 E13.70332
G0 F6000 X102.619 Y103.75
G1 F1200 X105.25 Y106.382 E13.87661
G0 F6000 X105.265 Y105.831
G1 F1200 X102.633 Y103.199 E14.04993
G0 F6000 X102.648 Y102.648
G1 F1200 X105.279 Y105.279 E14.22319
G0 F6000 X105.294 Y104.728
G1 F1200 X102.662 Y102.097 E14.39648
G0 F6000 X102.674 Y101.542
G1 F1200 X105.308 Y104.177 E14.56996
G0 F6000 X105.322 Y103.625
G1 F1200 X102.678 Y100.981 E14.74407
G0 F6000 X102.683 Y100.421
G1 F1200 X105.337 Y103.074 E14.91881
G0 F6000 X105.351 Y102.523
G1 F1200 X102.688 Y99.859 E15.09421
G0 F6000 X102.693 Y99.299
G1 F1200 X105.366 Y101.972 E15.27023
G0 F6000 X105.374 Y101.414
G1 F1200 X102.698 Y98.738 E15.44645
G0 F6000 X102.703 Y98.177
G1 F1200 X105.379 Y100.853 E15.62267
G0 F6000 X105.383 Y100.292
G1 F1200 X102.707 Y97.616 E15.79889
G0 F6000 X103.079 Y97.423
G1 F1200 X105.388 Y99.731 E15.95091
G0 F6000 X105.393 Y99.171
G1 F1200 X103.645 Y97.423 E16.06601
G0 F6000 X104.211 Y97.423
G1 F1200 X105.397 Y98.609 E16.14411
G0 F6000 X105.402 Y98.048
G1 F1200 X104.776 Y97.423 E16.18531
G0 F6000 X105.342 Y97.423
G1 F1200 X105.407 Y97.488 E16.18959
G0 F6000 X105.76 Y97.491
;MESH:clamp-head-5mm-v01.obj
G0 X105.849 Y97.491
G0 X106.103 Y101.81
G0 X107.186 Y101.838
G0 X107.249 Y107.115
G0 X108.32 Y107.118
G0 X107.75 Y122.58
G0 X111.341 Y123.077
;TYPE:WALL-INNER
G1 F1200 X111.141 Y123.06 E16.19893
G1 X107.555 Y122.746 E16.36655
G1 X107.94 Y117.831 E16.59611
G1 X108.267 Y112.455 E16.84691
G1 X108.501 Y107.125 E17.09533
G1 X108.643 Y101.693 E17.34836
G1 X108.685 Y96.873 E17.5728
G1 X112.283 Y96.873 E17.74034
G1 X112.284 Y96.873 E17.74039
G1 X112.484 Y96.873 E17.7497
G1 X112.484 Y97.073 E17.75573
G1 X112.483 Y97.074 E17.7558
G1 X112.441 Y101.804 E17.97605
G1 X112.298 Y107.239 E18.22922
G1 X112.055 Y112.779 E18.48743
G1 X111.724 Y118.203 E18.74047
G1 X111.356 Y122.877 E18.95878
G1 X111.341 Y123.077 E18.96479
G0 F6000 X111.708 Y123.51
;TYPE:WALL-OUTER
G1 F1200 X107.125 Y123.109 E19.17901
G1 X107.541 Y117.803 E19.42684
G1 X107.868 Y112.434 E19.6773
G1 X108.101 Y107.111 E19.9254
G1 X108.243 Y101.686 E20.1781
G1 X108.288 Y96.473 E20.42085
G1 X112.888 Y96.473 E20.63504
G1 X112.841 Y101.815 E20.8838
G1 X112.698 Y107.257 E21.13729
G1 X112.455 Y112.797 E21.3955
G1 X112.123 Y118.234 E21.64914
G1 X111.708 Y123.51 E21.89558
G0 F6000 X111.461 Y123.217
G0 X111.262 Y122.676
G0 X110.984 Y122.654
;TYPE:SKIN
G1 F1200 X107.974 Y122.391 E22.03627
G1 X108.33 Y117.858 E22.24799
G1 X108.657 Y112.475 E22.49911
G1 X108.891 Y107.139 E22.74782
G1 X109.033 Y101.699 E23.00121
G1 X109.071 Y97.263 E23.20778
G1 X112.09 Y97.263 E23.34835
G1 X112.051 Y101.794 E23.55934
G1 X111.908 Y107.222 E23.81218
G1 X111.665 Y112.755 E24.07007
G1 X111.329 Y118.261 E24.32693
G1 X110.984 Y122.654 E24.53212
G0 F6000 X111.262 Y122.676
G0 X111.174 Y122.88
G0 X107.75 Y122.58
G0 X107.746 Y121.726
G0 X108.183 Y121.76
G1 F1200 X108.717 Y122.294 E24.56728
G0 F6000 X109.337 Y122.348
G1 F1200 X108.224 Y121.235 E24.64057
G0 F6000 X108.266 Y120.711
G1 F1200 X109.957 Y122.403 E24.75196
G0 F6000 X110.577 Y122.456
G1 F1200 X108.307 Y120.186 E24.90145
G0 F6000 X108.348 Y119.662
G1 F1200 X110.862 Y122.176 E25.067
G0 F6000 X110.903 Y121.651
G1 F1200 X108.389 Y119.137 E25.23255
G0 F6000 X108.431 Y118.613
G1 F1200 X110.944 Y121.126 E25.39803
G0 F6000 X110.985 Y120.602
G1 F1200 X108.472 Y118.088 E25.56355
G0 F6000 X108.508 Y117.559
G1 F1200 X111.027 Y120.078 E25.72943
G0 F6000 X111.068 Y119.553
G1 F1200 X108.54 Y117.026 E25.89587
G0 F6000 X108.573 Y116.493
G1 F1200 X111.109 Y119.028 E26.06284
G0 F6000 X111.15 Y118.504
G1 F1200 X108.605 Y115.959 E26.23043
G0 F6000 X108.637 Y115.425
G1 F1200 X111.186 Y117.975 E26.39832
G0 F6000 X111.219 Y117.441
G1 F1200 X108.67 Y114.892 E26.56618
G0 F6000 X108.702 Y114.359
G1 F1200 X111.251 Y116.908 E26.73403
G0 F6000 X111.283 Y116.374
G1 F1200 X108.735 Y113.826 E26.90182
G0 F6000 X108.767 Y113.293
G1 F1200 X111.316 Y115.841 E27.06965
G0 F6000 X111.348 Y115.308
G1 F1200 X108.8 Y112.76 E27.23744
G0 F6000 X108.827 Y112.222
G1 F1200 X111.381 Y114.775 E27.40559
G0 F6000 X111.413 Y114.242
G1 F1200 X108.852 Y111.68 E27.57427
G0 F6000 X108.875 Y111.138
G1 F1200 X111.446 Y113.709 E27.74357
G0 F6000 X111.478 Y113.175
G1 F1200 X108.899 Y110.596 E27.9134
G0 F6000 X108.922 Y110.054
G1 F1200 X111.51 Y112.641 E28.0838
G0 F6000 X111.533 Y112.099
G1 F1200 X108.946 Y109.512 E28.25415
G0 F6000 X108.97 Y108.97
G1 F1200 X111.557 Y111.557 E28.42451
G0 F6000 X111.581 Y111.015
G1 F1200 X108.993 Y108.427 E28.59494
G0 F6000 X109.017 Y107.886
G1 F1200 X111.604 Y110.473 E28.76529
G0 F6000 X111.628 Y109.931
G1 F1200 X109.04 Y107.343 E28.93572
G0 F6000 X109.058 Y106.795
G1 F1200 X111.652 Y109.39 E29.10657
G0 F6000 X111.676 Y108.847
G1 F1200 X109.073 Y106.244 E29.27798
G0 F6000 X109.087 Y105.693
G1 F1200 X111.7 Y108.306 E29.45005
G0 F6000 X111.723 Y107.763
G1 F1200 X109.101 Y105.141 E29.62272
G0 F6000 X109.116 Y104.59
G1 F1200 X111.747 Y107.222 E29.79601
G0 F6000 X111.762 Y106.671
G1 F1200 X109.13 Y104.039 E29.96933
G0 F6000 X109.144 Y103.487
G1 F1200 X111.776 Y106.119 E30.14265
G0 F6000 X111.791 Y105.568
G1 F1200 X109.159 Y102.937 E30.31594
G0 F6000 X109.173 Y102.385
G1 F1200 X111.805 Y105.017 E30.48926
G0 F6000 X111.82 Y104.466
G1 F1200 X109.188 Y101.834 E30.66258
G0 F6000 X109.195 Y101.276
G1 F1200 X111.834 Y103.914 E30.83633
G0 F6000 X111.849 Y103.364
G1 F1200 X109.199 Y100.714 E31.01084
G0 F6000 X109.204 Y100.153
G1 F1200 X111.863 Y102.812 E31.18594
G0 F6000 X111.878 Y102.261
G1 F1200 X109.209 Y99.593 E31.36166
G0 F6000 X109.214 Y99.032
G1 F1200 X111.891 Y101.708 E31.53792
G0 F6000 X111.896 Y101.148
G1 F1200 X109.219 Y98.471 E31.7142
G0 F6000 X109.224 Y97.91
G1 F1200 X111.901 Y100.587 E31.89049
G0 F6000 X111.905 Y100.025
G1 F1200 X109.302 Y97.423 E32.06186
G0 F6000 X109.868 Y97.423
G1 F1200 X111.91 Y99.465 E32.19633
G0 F6000 X111.915 Y98.904
G1 F1200 X110.433 Y97.423 E32.29389
G0 F6000 X110.999 Y97.423
G1 F1200 X111.92 Y98.343 E32.35451
G0 F6000 X111.924 Y97.782
G1 F1200 X111.565 Y97.423 E32.37815
G0 F6000 X111.565 Y97.073
;MESH:clamp-head-5mm-v01.obj(2)
G0 X111.565 Y96.983
G0 X112.3 Y97.055
G0 X112.479 Y107.248
G0 X113.562 Y107.294
G0 X114.14 Y112.384
G0 X115.222 Y112.445
G0 X114.885 Y122.58
G0 X118.476 Y123.077
;TYPE:WALL-INNER
G1 F1200 X118.276 Y123.06 E32.3875
G1 X114.69 Y122.746 E32.55511
G1 X115.075 Y117.831 E32.78468
G1 X115.402 Y112.455 E33.03547
G1 X115.636 Y107.125 E33.2839
G1 X115.778 Y101.693 E33.53692
G1 X115.82 Y96.873 E33.76137
G1 X119.418 Y96.873 E33.92891
G1 X119.419 Y96.873 E33.92895
G1 X119.619 Y96.873 E33.93827
G1 X119.619 Y97.073 E33.9443
G1 X119.618 Y97.074 E33.94436
G1 X119.576 Y101.804 E34.16462
G1 X119.433 Y107.239 E34.41778
G1 X119.19 Y112.779 E34.676
G1 X118.858 Y118.203 E34.92903
G1 X118.491 Y122.877 E35.14734
G1 X118.476 Y123.077 E35.15336
G0 F6000 X118.843 Y123.51
;TYPE:WALL-OUTER
G1 F1200 X114.26 Y123.109 E35.36757
G1 X114.676 Y117.803 E35.6154
G1 X115.003 Y112.434 E35.86587
G1 X115.236 Y107.111 E36.11397
G1 X115.378 Y101.686 E36.36666
G1 X115.423 Y96.473 E36.60941
G1 X120.023 Y96.473 E36.82361
G1 X119.976 Y101.815 E37.07236
G1 X119.833 Y107.257 E37.32585
G1 X119.59 Y112.797 E37.58407
G1 X119.257 Y118.234 E37.83771
G1 X118.843 Y123.51 E38.08414
G0 F6000 X118.596 Y123.217
G0 X118.397 Y122.676
G0 X118.119 Y122.654
;TYPE:SKIN
G1 F1200 X115.109 Y122.391 E38.22483
G1 X115.465 Y117.858 E38.43656
G1 X115.792 Y112.475 E38.68767
G1 X116.026 Y107.139 E38.93638
G1 X116.168 Y101.699 E39.18977
G1 X116.206 Y97.263 E39.39634
G1 X119.225 Y97.263 E39.53692
G1 X119.186 Y101.794 E39.74791
G1 X119.043 Y107.222 E40.00075
G1 X118.8 Y112.755 E40.25863
G1 X118.463 Y118.261 E40.5155
G1 X118.119 Y122.654 E40.72068
G0 F6000 X118.397 Y122.676
G0 X118.309 Y122.88
G0 X114.885 Y122.58
G0 X114.856 Y122.047
G0 X115.293 Y122.081
G1 F1200 X115.472 Y122.26 E40.73247
G0 F6000 X116.092 Y122.314
G1 F1200 X115.334 Y121.557 E40.78235
G0 F6000 X115.375 Y121.032
G1 F1200 X116.711 Y122.368 E40.87033
G0 F6000 X117.331 Y122.422
G1 F1200 X115.417 Y120.508 E40.99637
G0 F6000 X115.458 Y119.983
G1 F1200 X117.951 Y122.476 E41.16054
G0 F6000 X118.012 Y121.972
G1 F1200 X115.499 Y119.459 E41.32602
G0 F6000 X115.541 Y118.935
G1 F1200 X118.053 Y121.447 E41.49144
G0 F6000 X118.094 Y120.923
G1 F1200 X115.582 Y118.41 E41.65689
G0 F6000 X115.623 Y117.886
G1 F1200 X118.135 Y120.398 E41.82231
G0 F6000 X118.176 Y119.873
G1 F1200 X115.656 Y117.353 E41.98826
G0 F6000 X115.688 Y116.819
G1 F1200 X118.217 Y119.349 E42.15483
G0 F6000 X118.258 Y118.824
G1 F1200 X115.72 Y116.286 E42.32196
G0 F6000 X115.753 Y115.753
G1 F1200 X118.299 Y118.299 E42.48962
G0 F6000 X118.332 Y117.767
G1 F1200 X115.785 Y115.219 E42.65738
G0 F6000 X115.817 Y114.686
G1 F1200 X118.365 Y117.234 E42.82517
G0 F6000 X118.397 Y116.7
G1 F1200 X115.849 Y114.152 E42.99296
G0 F6000 X115.882 Y113.619
G1 F1200 X118.43 Y116.167 E43.16075
G0 F6000 X118.463 Y115.634
G1 F1200 X115.914 Y113.086 E43.32857
G0 F6000 X115.946 Y112.552
G1 F1200 X118.495 Y115.101 E43.49643
G0 F6000 X118.528 Y114.568
G1 F1200 X115.971 Y112.012 E43.66478
G0 F6000 X115.995 Y111.469
G1 F1200 X118.56 Y114.035 E43.83372
G0 F6000 X118.593 Y113.501
G1 F1200 X116.019 Y110.928 E44.00319
G0 F6000 X116.042 Y110.385
G1 F1200 X118.625 Y112.968 E44.17328
G0 F6000 X118.653 Y112.43
G1 F1200 X116.066 Y109.844 E44.34361
G0 F6000 X116.09 Y109.302
G1 F1200 X118.677 Y111.889 E44.51397
G0 F6000 X118.7 Y111.346
G1 F1200 X116.114 Y108.76 E44.68426
G0 F6000 X116.138 Y108.218
G1 F1200 X118.724 Y110.805 E44.85459
G0 F6000 X118.748 Y110.263
G1 F1200 X116.161 Y107.676 E45.02494
G0 F6000 X116.185 Y107.134
G1 F1200 X118.772 Y109.721 E45.1953
G0 F6000 X118.796 Y109.179
G1 F1200 X116.199 Y106.582 E45.36632
G0 F6000 X116.214 Y106.032
G1 F1200 X118.82 Y108.637 E45.5379
G0 F6000 X118.844 Y108.096
G1 F1200 X116.228 Y105.48 E45.71016
G0 F6000 X116.242 Y104.928
G1 F1200 X118.867 Y107.553 E45.88302
G0 F6000 X118.887 Y107.008
G1 F1200 X116.257 Y104.378 E46.05621
G0 F6000 X116.271 Y103.826
G1 F1200 X118.902 Y106.457 E46.22947
G0 F6000 X118.916 Y105.906
G1 F1200 X116.285 Y103.275 E46.40273
G0 F6000 X116.3 Y102.724
G1 F1200 X118.931 Y105.355 E46.57598
G0 F6000 X118.945 Y104.803
G1 F1200 X116.314 Y102.172 E46.74924
G0 F6000 X116.327 Y101.619
G1 F1200 X118.96 Y104.252 E46.92263
G0 F6000 X118.974 Y103.701
G1 F1200 X116.332 Y101.058 E47.09664
G0 F6000 X116.337 Y100.498
G1 F1200 X118.989 Y103.15 E47.27128
G0 F6000 X119.003 Y102.599
G1 F1200 X116.342 Y99.937 E47.44654
G0 F6000 X116.346 Y99.376
G1 F1200 X119.018 Y102.048 E47.6225
G0 F6000 X119.027 Y101.491
M104 S205
G1 F1200 X116.351 Y98.815 E47.79872
G0 F6000 X116.356 Y98.254
G1 F1200 X119.032 Y100.931 E47.97497
G0 F6000 X119.037 Y100.369
G1 F1200 X116.36 Y97.693 E48.15122
G0 F6000 X116.656 Y97.423
G1 F1200 X119.042 Y99.808 E48.30831
G0 F6000 X119.047 Y99.248
G1 F1200 X117.222 Y97.423 E48.42849
G0 F6000 X117.787 Y97.423
G1 F1200 X119.051 Y98.686 E48.51169
G0 F6000 X119.056 Y98.125
G1 F1200 X118.353 Y97.423 E48.55795
G0 F6000 X118.919 Y97.423
G1 F1200 X119.061 Y97.565 E48.56731
G0 F6000 X119.414 Y97.568
;MESH:NONMESH
G0 F300 X119.414 Y97.568 Z0.56
G0 F6000 X119.502 Y97.568
G0 X119.435 Y97.055
G0 X116 Y97.055
G0 X115.455 Y107.118
G0 X114.384 Y107.115
G0 X112.49 Y124.435
G0 X106.209 Y123.885
G0 X106.467 Y118.292
G0 X105.391 Y118.235
G0 X104.822 Y123.078
;TIME_ELAPSED:69.897103
;LAYER:1
M140 S55
M106 S85
;TYPE:WALL-INNER
;MESH:clamp-head-5mm-v01.obj(1)
G1 F1125 X104.622 Y123.061 E48.57665
G1 X101.036 Y122.746 E48.74427
