;FLAVOR:Marlin
;TIME:15693
;Filament used: 22.9047m
;Layer height: 0.28
;MINX:11.636
;MINY:1.947
;MINZ:0.336
;MAXX:218.394
;MAXY:216.99
;MAXZ:21.016
;Generated with Cura_SteamEngine 4.4.0
M140 S60
M105
M190 S60
M104 S200
M105
M109 S200
M82 ;absolute extrusion mode
M201 X500.00 Y500.00 Z100.00 E5000.00 ;Setup machine max acceleration
M203 X500.00 Y500.00 Z10.00 E50.00 ;Setup machine max feedrate
M204 P500.00 R1000.00 T500.00 ;Setup Print/Retract/Travel acceleration
M205 X8.00 Y8.00 Z0.40 E5.00 ;Setup Jerk
M220 S100 ;Reset Feedrate
M221 S100 ;Reset Flowrate
G28
G29 ;Home
G92 E0 ;Reset Extruder
G1 Z2.0 F3000 ;Move Z Axis up
G1 X10.1 Y20 Z0.28 F5000.0 ;Move to start position
G1 X10.1 Y200.0 Z0.28 F1500.0 E15 ;Draw the first line
G1 X10.4 Y200.0 Z0.28 F5000.0 ;Move to side a little
G1 X10.4 Y20 Z0.28 F1500.0 E30 ;Draw the second line
G92 E0 ;Reset Extruder
G1 Z2.0 F3000 ;Move Z Axis up
G92 E0
G92 E0
G1 F1500 E-7
;LAYER_COUNT:71
;LAYER:-4
M106 S25.5
G0 F11250 X144.584 Y11.263 Z0.336
;TYPE:SUPPORT-INTERFACE
G1 F1500 E0
G1 F1800 X144.645 Y10.708 E0.0624
G1 X144.682 Y10.482 E0.08799
G1 X144.793 Y9.965 E0.14708
G1 X144.847 Y9.763 E0.17045
G1 X145.017 Y9.23 E0.23297
G1 X145.085 Y9.05 E0.25447
G1 X145.313 Y8.528 E0.31813
G1 X145.402 Y8.348 E0.34057
G1 X145.67 Y7.87 E0.40181
G1 X145.781 Y7.693 E0.42516
G1 X146.104 Y7.232 E0.48807
G1 X146.216 Y7.084 E0.50881
G1 X146.614 Y6.619 E0.57721
G1 X146.712 Y6.517 E0.59302
G1 X147.13 Y6.104 E0.65869
G1 X147.318 Y5.937 E0.68679
G1 X147.72 Y5.613 E0.74449
G1 X147.89 Y5.49 E0.76794
G1 X148.356 Y5.186 E0.83012
G1 X148.537 Y5.081 E0.8535
G1 X149.01 Y4.836 E0.91303
G1 X149.215 Y4.742 E0.93824
G1 X149.729 Y4.537 E1.00008
G1 X149.937 Y4.467 E1.0246
G1 X150.435 Y4.324 E1.08251
G1 X150.653 Y4.273 E1.10753
G1 X151.192 Y4.176 E1.16873
G1 X151.419 Y4.146 E1.19432
G1 X152.027 Y4.097 E1.26248
G1 X179.237 Y3.004 E4.30576
G1 X179.864 Y3.011 E4.37584
G1 X180.064 Y3.023 E4.39823
G1 X180.614 Y3.083 E4.46006
G1 X180.839 Y3.12 E4.48554
G1 X181.355 Y3.231 E4.54453
G1 X181.569 Y3.287 E4.56925
G1 X182.092 Y3.454 E4.6306
G1 X182.287 Y3.528 E4.65391
G1 X182.778 Y3.741 E4.71372
G1 X182.979 Y3.84 E4.73876
G1 X183.466 Y4.113 E4.80115
G1 X183.628 Y4.214 E4.82249
G1 X184.089 Y4.537 E4.88539
G1 X184.241 Y4.653 E4.90676
G1 X184.702 Y5.045 E4.97439
G1 X184.812 Y5.151 E4.99146
G1 X185.225 Y5.569 E5.05713
G1 X185.392 Y5.757 E5.08523
G1 X185.716 Y6.159 E5.14293
G1 X185.839 Y6.329 E5.16638
G1 X186.143 Y6.795 E5.22856
G1 X186.248 Y6.976 E5.25194
G1 X186.491 Y7.444 E5.31087
G1 X186.587 Y7.654 E5.33668
G1 X186.785 Y8.153 E5.39667
G1 X186.862 Y8.378 E5.42325
G1 X187.004 Y8.871 E5.48058
G1 X187.056 Y9.092 E5.50596
G1 X187.156 Y9.648 E5.56909
G1 X187.181 Y9.844 E5.59117
G1 X187.232 Y10.473 E5.66169
G1 X187.62 Y20.187 E6.74814
G1 X187.613 Y20.821 E6.81899
G1 X187.601 Y21.021 E6.84138
G1 X187.539 Y21.583 E6.90457
G1 X187.505 Y21.79 E6.92801
G1 X187.378 Y22.37 E6.99437
G1 X187.249 Y23.023 E7.06875
G1 X187.208 Y23.49 E7.12114
G1 X186.973 Y28.779 E7.71279
G1 X186.946 Y29.186 E7.75838
G1 X186.885 Y29.837 E7.83145
G1 X186.864 Y30.507 E7.90636
G1 X186.93 Y31.187 E7.98271
G1 X187.082 Y31.853 E8.05905
G1 X187.316 Y32.494 E8.13531
G1 X187.629 Y33.101 E8.21163
G1 X188.016 Y33.664 E8.28798
G1 X188.471 Y34.173 E8.36428
G1 X188.987 Y34.62 E8.44057
G1 X189.554 Y34.999 E8.51679
G1 X190.165 Y35.303 E8.59305
G1 X190.81 Y35.528 E8.6694
G1 X191.481 Y35.67 E8.74604
G1 X192.247 Y35.726 E8.83188
G1 X209.689 Y35.73 E10.78109
G1 X210.293 Y35.76 E10.84867
G1 X210.502 Y35.781 E10.87215
G1 X211.045 Y35.863 E10.93352
G1 X211.24 Y35.902 E10.95574
G1 X211.78 Y36.04 E11.01803
G1 X211.98 Y36.102 E11.04143
G1 X212.488 Y36.288 E11.10188
G1 X212.708 Y36.38 E11.12853
G1 X213.183 Y36.61 E11.18751
G1 X213.369 Y36.712 E11.21122
G1 X213.826 Y36.992 E11.27111
G1 X214.026 Y37.128 E11.29814
G1 X214.437 Y37.441 E11.35588
G1 X214.627 Y37.6 E11.38356
G1 X215.091 Y38.032 E11.45441
G1 X215.152 Y38.097 E11.46437
G1 X215.558 Y38.546 E11.53202
G1 X215.71 Y38.731 E11.55878
G1 X216.015 Y39.145 E11.61625
G1 X216.153 Y39.352 E11.64405
G1 X216.412 Y39.791 E11.70101
G1 X216.524 Y40.002 E11.72771
G1 X216.75 Y40.489 E11.78771
G1 X216.831 Y40.689 E11.81182
G1 X217.014 Y41.212 E11.87374
G1 X217.071 Y41.406 E11.89634
G1 X217.2 Y41.944 E11.95817
G1 X217.241 Y42.165 E11.98329
G1 X217.312 Y42.687 E12.04216
G1 X217.331 Y42.912 E12.06739
G1 X217.354 Y43.519 E12.13528
G1 X217.35 Y53.261 E13.22398
G1 X217.32 Y53.865 E13.29157
G1 X217.299 Y54.073 E13.31493
G1 X217.217 Y54.617 E13.37641
G1 X217.178 Y54.812 E13.39864
G1 X217.026 Y55.397 E13.46618
G1 X216.868 Y56.044 E13.54061
G1 X216.805 Y56.526 E13.59494
G1 X216.359 Y61.787 E14.18498
G1 X216.314 Y62.197 E14.23108
G1 X215.261 Y70.095 E15.12152
G1 X215.211 Y70.417 E15.15794
G1 X213.78 Y78.249 E16.04768
G1 X213.692 Y78.664 E16.09509
G1 X211.892 Y86.383 E16.98087
G1 X211.799 Y86.746 E17.02274
G1 X209.623 Y94.393 E17.91125
G1 X209.51 Y94.755 E17.95363
G1 X206.962 Y102.299 E18.84349
G1 X206.814 Y102.7 E18.89126
G1 X203.925 Y110.063 E19.77518
G1 X203.779 Y110.411 E19.81735
G1 X200.515 Y117.673 E20.70712
G1 X200.33 Y118.058 E20.75485
G1 X196.727 Y125.141 E21.64293
G1 X196.559 Y125.452 E21.68243
G1 X192.582 Y132.408 E22.57788
G1 X192.393 Y132.719 E22.61855
G1 X188.109 Y139.442 E23.50944
G1 X187.886 Y139.772 E23.55395
G1 X183.232 Y146.345 E24.454
G1 X183.065 Y146.569 E24.48522
G1 X178.173 Y152.818 E25.37212
G1 X177.96 Y153.078 E25.40968
G1 X172.769 Y159.091 E26.29742
G1 X172.465 Y159.423 E26.34773
G1 X167.021 Y165.144 E27.23028
G1 X166.748 Y165.417 E27.27343
G1 X160.988 Y170.914 E28.16322
G1 X160.702 Y171.173 E28.20634
G1 X154.691 Y176.379 E29.09501
G1 X154.371 Y176.641 E29.14123
G1 X148.093 Y181.565 E30.03288
G1 X147.796 Y181.785 E30.07418
G1 X141.309 Y186.385 E30.9629
G1 X141.029 Y186.574 E31.00065
G1 X134.279 Y190.886 E31.89577
G1 X133.966 Y191.074 E31.93657
G1 X127.032 Y195.046 E32.82961
G1 X126.714 Y195.218 E32.87001
G1 X119.647 Y198.825 E33.7567
G1 X119.327 Y198.979 E33.79639
G1 X112.093 Y202.242 E34.68325
G1 X111.723 Y202.398 E34.72813
G1 X104.273 Y205.333 E35.62297
G1 X103.938 Y205.457 E35.66289
G1 X96.432 Y208.003 E36.54866
G1 X96.037 Y208.125 E36.59486
G1 X88.368 Y210.319 E37.48629
G1 X88.015 Y210.41 E37.52702
G1 X80.268 Y212.227 E38.41628
G1 X79.89 Y212.305 E38.45941
G1 X72.037 Y213.751 E39.35177
G1 X71.671 Y213.807 E39.39315
G1 X63.773 Y214.87 E40.28374
G1 X63.475 Y214.904 E40.31726
G1 X57.93 Y215.379 E40.9392
G1 X57.273 Y215.477 E41.01344
G1 X56.895 Y215.573 E41.05702
G1 X56.663 Y215.641 E41.08404
G1 X56.142 Y215.766 E41.14392
G1 X55.923 Y215.806 E41.16879
G1 X55.383 Y215.88 E41.22971
G1 X55.188 Y215.897 E41.25158
G1 X54.557 Y215.921 E41.32215
G1 X44.822 Y215.922 E42.41007
G1 X44.233 Y215.893 E42.47598
G1 X43.994 Y215.868 E42.50283
G1 X43.482 Y215.792 E42.56068
G1 X43.243 Y215.744 E42.58792
G1 X42.732 Y215.614 E42.64684
G1 X42.538 Y215.554 E42.66954
G1 X42.024 Y215.367 E42.73066
G1 X41.802 Y215.273 E42.7576
G1 X41.333 Y215.046 E42.81583
G1 X41.134 Y214.937 E42.84119
G1 X40.684 Y214.662 E42.90013
G1 X40.483 Y214.525 E42.92731
G1 X40.07 Y214.21 E42.98536
G1 X39.887 Y214.058 E43.01194
G1 X39.356 Y213.556 E43.0936
G1 X38.95 Y213.106 E43.16134
G1 X38.798 Y212.921 E43.18809
G1 X38.482 Y212.492 E43.24764
G1 X38.364 Y212.313 E43.2716
G1 X38.091 Y211.853 E43.33138
G1 X37.988 Y211.658 E43.35602
G1 X37.758 Y211.163 E43.41702
G1 X37.675 Y210.958 E43.44174
G1 X37.494 Y210.44 E43.50306
G1 X37.434 Y210.234 E43.52704
G1 X37.308 Y209.709 E43.58737
G1 X37.267 Y209.487 E43.6126
G1 X37.196 Y208.965 E43.67147
G1 X37.177 Y208.74 E43.69671
G1 X37.154 Y208.133 E43.76459
G1 X37.154 Y194.667 E45.26947
G1 X37.112 Y193.999 E45.34427
G1 X36.983 Y193.328 E45.42063
G1 X36.77 Y192.679 E45.49697
G1 X36.478 Y192.062 E45.57325
G1 X36.11 Y191.487 E45.64954
G1 X35.672 Y190.963 E45.72586
G1 X35.172 Y190.499 E45.80209
G1 X34.616 Y190.1 E45.87857
G1 X34.016 Y189.776 E45.95478
G1 X33.38 Y189.53 E46.03099
G1 X32.716 Y189.366 E46.10742
G1 X32.041 Y189.287 E46.18337
G1 X31.543 Y189.284 E46.23902
G1 X21.791 Y189.68 E47.32975
G1 X21.169 Y189.674 E47.39926
G1 X20.954 Y189.661 E47.42333
G1 X20.42 Y189.603 E47.48336
G1 X20.186 Y189.565 E47.50985
G1 X19.68 Y189.458 E47.56765
G1 X19.454 Y189.398 E47.59378
G1 X18.956 Y189.238 E47.65224
G1 X18.732 Y189.154 E47.67897
G1 X18.246 Y188.943 E47.73818
G1 X18.031 Y188.837 E47.76497
G1 X17.583 Y188.586 E47.82236
G1 X17.391 Y188.466 E47.84766
G1 X16.942 Y188.153 E47.90883
G1 X16.776 Y188.026 E47.93219
G1 X16.313 Y187.63 E48.00027
G1 X16.206 Y187.527 E48.01687
G1 X15.8 Y187.116 E48.08143
G1 X15.633 Y186.928 E48.10953
G1 X15.309 Y186.526 E48.16723
G1 X15.186 Y186.356 E48.19068
G1 X14.882 Y185.89 E48.25286
G1 X14.775 Y185.705 E48.27675
G1 X14.532 Y185.236 E48.33578
G1 X14.437 Y185.027 E48.36143
G1 X14.233 Y184.517 E48.42282
G1 X14.163 Y184.309 E48.44734
G1 X14.02 Y183.811 E48.50525
G1 X13.969 Y183.593 E48.53027
G1 X13.87 Y183.042 E48.59283
G1 X13.841 Y182.819 E48.61796
G1 X13.793 Y182.215 E48.68567
G1 X12.701 Y155.015 E51.72783
G1 X12.708 Y154.376 E51.79925
G1 X12.72 Y154.18 E51.82119
G1 X12.783 Y153.613 E51.88495
G1 X12.817 Y153.403 E51.90872
G1 X12.928 Y152.885 E51.96792
G1 X12.983 Y152.678 E51.99186
G1 X13.141 Y152.182 E52.05003
G1 X13.23 Y151.946 E52.07822
G1 X13.452 Y151.435 E52.14048
G1 X13.532 Y151.272 E52.16077
G1 X13.796 Y150.799 E52.22131
G1 X13.913 Y150.614 E52.24577
G1 X14.239 Y150.149 E52.30924
G1 X14.359 Y149.992 E52.33132
G1 X14.743 Y149.542 E52.39743
G1 X14.848 Y149.432 E52.41442
G1 X15.266 Y149.019 E52.48009
G1 X15.44 Y148.864 E52.50613
G1 X15.856 Y148.529 E52.56582
G1 X16.026 Y148.405 E52.58934
G1 X16.492 Y148.101 E52.65152
G1 X16.673 Y147.996 E52.6749
G1 X17.146 Y147.751 E52.73443
G1 X17.351 Y147.657 E52.75964
G1 X17.865 Y147.452 E52.82148
G1 X18.073 Y147.382 E52.846
G1 X18.571 Y147.239 E52.90391
G1 X18.789 Y147.188 E52.92893
G1 X19.33 Y147.091 E52.99035
G1 X19.553 Y147.061 E53.01549
G1 X20.167 Y147.012 E53.08433
G1 X29.89 Y146.623 E54.17178
G1 X30.517 Y146.63 E54.24186
G1 X30.717 Y146.642 E54.26425
G1 X31.267 Y146.702 E54.32608
G1 X31.493 Y146.739 E54.35167
G1 X32.005 Y146.849 E54.41019
G1 X32.227 Y146.908 E54.43587
G1 X32.73 Y147.07 E54.49492
G1 X32.947 Y147.151 E54.52081
G1 X33.43 Y147.36 E54.57962
G1 X33.645 Y147.467 E54.60646
G1 X34.105 Y147.725 E54.6654
G1 X34.286 Y147.838 E54.68924
G1 X34.739 Y148.154 E54.75097
G1 X34.912 Y148.288 E54.77542
G1 X35.388 Y148.696 E54.84549
G1 X35.494 Y148.799 E54.862
G1 X35.891 Y149.205 E54.92546
G1 X36.053 Y149.388 E54.95277
G1 X36.389 Y149.809 E55.01297
G1 X36.523 Y149.996 E55.03868
G1 X36.808 Y150.436 E55.09727
G1 X36.913 Y150.619 E55.12084
G1 X37.167 Y151.114 E55.18302
G1 X37.256 Y151.31 E55.20708
G1 X37.457 Y151.821 E55.26844
G1 X37.52 Y152.011 E55.29081
G1 X37.816 Y153.068 E55.41348
G1 X37.825 Y153.065 E55.41454
G1 X37.853 Y153.158 E55.42539
G1 X38.129 Y153.782 E55.50165
G1 X38.481 Y154.367 E55.57794
G1 X38.905 Y154.903 E55.65432
G1 X39.392 Y155.38 E55.7305
G1 X39.936 Y155.793 E55.80683
G1 X40.528 Y156.134 E55.88318
G1 X41.158 Y156.398 E55.95952
G1 X41.816 Y156.579 E56.03578
G1 X42.492 Y156.677 E56.11212
G1 X43.18 Y156.688 E56.18901
G1 X44.139 Y156.555 E56.29721
G1 X50.63 Y155.03 E57.04236
G1 X50.881 Y154.964 E57.07136
G1 X57.413 Y153.081 E57.83107
G1 X57.657 Y153.005 E57.85963
G1 X64.117 Y150.795 E58.62263
G1 X64.359 Y150.704 E58.65153
G1 X70.554 Y148.234 E59.39684
G1 X70.789 Y148.134 E59.42538
G1 X77.082 Y145.259 E60.19857
G1 X77.316 Y145.144 E60.22771
G1 X83.258 Y142.061 E60.97581
G1 X83.482 Y141.938 E61.00437
G1 X89.366 Y138.509 E61.76544
G1 X89.583 Y138.375 E61.79394
G1 X95.29 Y134.66 E62.55495
G1 X95.504 Y134.514 E62.5839
G1 X100.996 Y130.538 E63.34161
G1 X101.202 Y130.381 E63.37055
G1 X106.508 Y126.122 E64.13092
G1 X106.705 Y125.955 E64.15978
G1 X111.775 Y121.455 E64.91736
G1 X111.962 Y121.282 E64.94583
G1 X116.835 Y116.509 E65.70812
G1 X117.016 Y116.322 E65.7372
G1 X121.629 Y111.326 E66.49713
G1 X121.798 Y111.135 E66.52563
G1 X126.156 Y105.924 E67.28479
G1 X126.318 Y105.72 E67.3139
G1 X130.403 Y100.308 E68.07166
G1 X130.552 Y100.1 E68.10025
G1 X134.391 Y94.456 E68.86307
G1 X134.53 Y94.24 E68.89178
G1 X138.067 Y88.441 E69.65088
G1 X138.197 Y88.215 E69.68001
G1 X141.444 Y82.241 E70.43987
G1 X141.56 Y82.014 E70.46836
G1 X144.506 Y75.895 E71.22731
G1 X144.612 Y75.659 E71.25622
G1 X147.26 Y69.376 E72.01818
G1 X147.355 Y69.136 E72.04703
G1 X149.68 Y62.752 E72.80631
G1 X149.763 Y62.509 E72.83501
G1 X151.77 Y56.016 E73.5945
G1 X151.839 Y55.768 E73.62327
G1 X153.519 Y49.195 E74.38144
G1 X153.577 Y48.944 E74.41023
G1 X154.936 Y42.262 E75.17226
G1 X154.981 Y42.008 E75.20108
G1 X155.998 Y35.323 E75.95676
G1 X156.057 Y34.656 E76.03159
G1 X156.031 Y33.973 E76.10797
G1 X155.918 Y33.3 E76.18423
G1 X155.722 Y32.646 E76.26053
G1 X155.445 Y32.021 E76.33693
G1 X155.091 Y31.438 E76.41315
G1 X154.666 Y30.903 E76.48951
G1 X154.177 Y30.426 E76.56585
G1 X153.633 Y30.015 E76.64205
G1 X153.04 Y29.676 E76.71838
G1 X152.405 Y29.412 E76.79523
G1 X151.533 Y29.195 E76.89566
G1 X151.352 Y29.166 E76.91614
G1 X150.835 Y29.056 E76.97521
G1 X150.609 Y28.996 E77.00134
G1 X150.087 Y28.829 E77.06259
G1 X149.907 Y28.761 E77.08409
G1 X149.396 Y28.538 E77.1464
G1 X149.205 Y28.444 E77.17019
G1 X148.718 Y28.171 E77.23258
G1 X148.554 Y28.068 E77.25423
G1 X148.095 Y27.747 E77.31682
G1 X147.94 Y27.628 E77.33866
G1 X147.475 Y27.232 E77.40691
G1 X147.365 Y27.126 E77.42399
G1 X146.959 Y26.715 E77.48855
G1 X146.792 Y26.527 E77.51665
G1 X146.468 Y26.125 E77.57435
G1 X146.345 Y25.955 E77.5978
G1 X146.041 Y25.489 E77.65998
G1 X145.934 Y25.304 E77.68386
G1 X145.691 Y24.835 E77.74289
G1 X145.596 Y24.626 E77.76855
G1 X145.392 Y24.116 E77.82993
G1 X145.322 Y23.908 E77.85446
G1 X145.179 Y23.41 E77.91236
G1 X145.128 Y23.192 E77.93738
G1 X145.028 Y22.636 E78.00051
G1 X145.001 Y22.423 E78.02451
G1 X144.952 Y21.81 E78.09323
G1 X144.565 Y12.097 E79.17956
G1 X144.572 Y11.541 E79.2417
G0 F1620 X144.572 Y11.459
G0 X144.584 Y11.263
G0 F11250 X145.6 Y7.994
G1 F1800 X145.6 Y24.634 E81.10129
G0 F11250 X147.2 Y26.958
G1 F1800 X147.2 Y6.041 E83.43885
G0 F11250 X148.8 Y4.944
G1 F1800 X148.8 Y28.216 E86.03959
G0 F11250 X150.4 Y28.929
G1 F1800 X150.4 Y4.334 E88.78818
G0 F11250 X152 Y4.099
G1 F1800 X152 Y29.311 E91.60572
G0 F11250 X153.6 Y29.996
G1 F1800 X153.6 Y4.033 E94.50719
G0 F11250 X155.2 Y3.969
G1 F1800 X155.2 Y31.617 E97.59697
G1 F1500 E90.59697
G0 F11250 X154.5 Y32.515
G0 X154.147 Y40.408
G0 X155.2 Y40.568
G1 F1500 E97.59697
G1 F1800 X155.2 Y175.939 E112.72523
G0 F11250 X153.6 Y177.246
G1 F1800 X153.6 Y48.83 E127.07624
G1 F1500 E120.07624
G0 F11250 X152.486 Y48.936
G0 X150.968 Y54.876
G0 X152 Y55.138
G1 F1500 E127.07624
G1 F1800 X152 Y178.501 E140.86255
G0 F11250 X150.4 Y179.756
G1 F1800 X150.4 Y60.448 E154.1957
G1 F1500 E147.1957
G0 F11250 X149.382 Y60.135
G0 X147.8 Y64.805
G0 X148.8 Y65.168
G1 F1500 E154.1957
G1 F1800 X148.8 Y181.011 E167.14163
G0 F11250 X147.2 Y182.208
G1 F1800 X147.2 Y69.518 E179.73519
G0 F11250 X145.6 Y73.314
G1 F1800 X145.6 Y183.343 E192.03138
G0 F11250 X144 Y184.477
G1 F1800 X144 Y76.945 E204.04852
G0 F11250 X142.4 Y80.269
G1 F1800 X142.4 Y185.612 E215.82102
G0 F11250 X140.8 Y186.721
G1 F1800 X140.8 Y83.425 E227.36477
G0 F11250 X139.2 Y86.369
G1 F1800 X139.2 Y187.743 E238.69373
G0 F11250 X137.6 Y188.765
G1 F1800 X137.6 Y89.206 E249.81985
G0 F11250 X136 Y91.829
G1 F1800 X136 Y189.787 E260.76705
G0 F11250 X134.4 Y190.809
G1 F1800 X134.4 Y94.442 E271.53645
G0 F11250 X132.8 Y96.795
G1 F1800 X132.8 Y191.742 E282.14717
G0 F11250 X131.2 Y192.659
G1 F1800 X131.2 Y99.147 E292.59751
G0 F11250 X129.6 Y101.371
G1 F1800 X129.6 Y193.575 E302.90168
G0 F11250 X128 Y194.492
G1 F1800 X128 Y103.491 E313.07141
G0 F11250 X126.4 Y105.611
G1 F1800 X126.4 Y195.379 E323.10335
G0 F11250 X124.8 Y196.195
G1 F1800 X124.8 Y107.545 E333.01035
G0 F11250 X123.2 Y109.458
G1 F1800 X123.2 Y197.012 E342.79486
G0 F11250 X121.6 Y197.829
G1 F1800 X121.6 Y111.357 E352.45846
G0 F11250 X120 Y113.09
G1 F1800 X120 Y198.645 E362.01958
G0 F11250 X118.4 Y199.398
G1 F1800 X118.4 Y114.823 E371.47118
G0 F11250 X116.8 Y116.543
G1 F1800 X116.8 Y200.119 E380.81113
